assets/Mood-Film-01.cube
TITLE "33x33x33 Adobe/IRIDAS cube 3D LUT exported with GrossGrade v0.2.2 (beta) 64 bit"
DOMAIN_MIN 0 0 0
DOMAIN_MAX 1 1 1
LUT_3D_SIZE 33
0.031616699 0.032166000 0.054779898
0.044922601 0.033936098 0.055374999
0.058243699 0.035660300 0.055970099
0.071610600 0.037460901 0.056595702
0.084931701 0.039261501 0.057221301
0.098268099 0.041031498 0.057862200
0.112581000 0.043060999 0.058579400
0.129702002 0.045502398 0.059266001
0.155717999 0.047898099 0.058548901
0.183458999 0.050339501 0.057572301
0.211413994 0.052781001 0.056580499
0.239383996 0.055130798 0.055588599
0.269244999 0.057831701 0.054490000
0.300877005 0.060700402 0.053345501
0.336659998 0.063736901 0.052155301
0.374150991 0.066712402 0.050949901
0.411718994 0.069657400 0.049744401
0.449241012 0.072617702 0.048538901
0.485541999 0.075730503 0.047394499
0.518868029 0.078950197 0.046692599
0.549400985 0.082398698 0.046601102
0.578240991 0.085999802 0.046936799
0.607050002 0.089539900 0.047226701
0.635339975 0.093064800 0.047516599
0.661982000 0.096482798 0.047806501
0.685054004 0.099961899 0.048081201
0.706019998 0.103822000 0.048447400
0.724009991 0.108277999 0.048981499
0.742030978 0.112733997 0.049500301
0.759884000 0.117159002 0.049973302
0.776485980 0.121233001 0.050400499
0.792401016 0.125109002 0.050781999
0.808041990 0.129060999 0.051102500
0.032410201 0.045777101 0.056153201
0.045609199 0.047745500 0.056809299
0.058869299 0.049683399 0.057480700
0.072098903 0.051621299 0.058152098
0.085359000 0.053665999 0.058853999
0.098588496 0.055634402 0.059556000
0.112810001 0.057816401 0.060334198
0.130219996 0.060318898 0.060929298
0.156801999 0.062790900 0.060135800
0.185183004 0.065247603 0.059037201
0.213885993 0.067643203 0.057907999
0.242526993 0.070084698 0.056809299
0.272908002 0.072785497 0.055634402
0.305240989 0.075669497 0.054444201
0.341298997 0.078644998 0.053131901
0.378987998 0.081666298 0.051850200
0.416480005 0.084611297 0.050553098
0.454077989 0.087556303 0.049271401
0.490424991 0.090653896 0.048050702
0.523536980 0.093949802 0.047486100
0.553887010 0.097474597 0.047425002
0.582863986 0.101106003 0.047760699
0.611872017 0.104783997 0.048065901
0.640344977 0.108369999 0.048386399
0.667200983 0.111955002 0.048706800
0.690226972 0.115708999 0.049118798
0.710825980 0.120026998 0.049637601
0.729259014 0.124834001 0.050278500
0.747767985 0.129685998 0.050919399
0.766063988 0.134478003 0.051499199
0.783138990 0.139025003 0.052018002
0.799450994 0.143281996 0.052506302
0.815304995 0.147737995 0.052918300
0.033249401 0.059388101 0.057557002
0.046295900 0.061509099 0.058258899
0.059464399 0.063706398 0.059006602
0.072602399 0.065888502 0.059754301
0.085771002 0.068024702 0.060517300
0.098939501 0.070267797 0.061295498
0.113008000 0.072541401 0.062073700
0.130677998 0.075181201 0.062653497
0.157900006 0.077653199 0.061722700
0.187105998 0.080140397 0.060486801
0.216388002 0.082520798 0.059250802
0.245762005 0.084946997 0.057984300
0.276616007 0.087708898 0.056748301
0.309574991 0.090592802 0.055466499
0.345982999 0.093644597 0.054108500
0.383673012 0.096604899 0.052689400
0.421256006 0.099504098 0.051285598
0.458914995 0.102449000 0.049881700
0.495353997 0.105562001 0.048645802
0.528267026 0.108994998 0.048126999
0.558372974 0.112566002 0.048218500
0.587548971 0.116288997 0.048523702
0.616708994 0.119966000 0.048798401
0.645395994 0.123705000 0.049149301
0.672526002 0.127381995 0.049530800
0.695551991 0.131502002 0.050095402
0.715723991 0.136216998 0.050766800
0.734646022 0.141405001 0.051483899
0.753552020 0.146562994 0.052216399
0.772243977 0.151704997 0.052918300
0.789807022 0.156663999 0.053574398
0.806484997 0.161486000 0.054154299
0.822690010 0.166521996 0.054688301
0.034058101 0.073090702 0.058976099
0.046982501 0.075394802 0.059739102
0.060074799 0.077744700 0.060563099
0.073105998 0.080048800 0.061356500
0.086198203 0.082444496 0.062195800
0.099259898 0.084824897 0.063050300
0.113268003 0.087281600 0.063874297
0.131211996 0.089997701 0.064377800
0.159030005 0.092515402 0.063355498
0.188876003 0.094987400 0.061997399
0.218906000 0.097474597 0.060608801
0.248980999 0.099961899 0.059220299
0.280369014 0.102692999 0.057862200
0.314060986 0.105576999 0.056458399
0.350607008 0.108492002 0.054978300
0.388388008 0.111482002 0.053482901
0.426016986 0.114381999 0.051941700
0.463752002 0.117357001 0.050461601
0.500267029 0.120499998 0.049164601
0.532966971 0.123934001 0.048706800
0.562920988 0.127626002 0.048844099
0.592248023 0.131380007 0.049179800
0.621607006 0.135163993 0.049469799
0.650461972 0.138979003 0.049820699
0.677561998 0.142901003 0.050293699
0.700847030 0.147233993 0.050965101
0.720745027 0.152483001 0.051804401
0.740046978 0.157946005 0.052658901
0.759425998 0.163470000 0.053482901
0.778667986 0.169100001 0.054322101
0.796627998 0.174472004 0.055069800
0.813610971 0.179828003 0.055802200
0.830242991 0.185458004 0.056443099
0.034882098 0.086778097 0.060425699
0.047699701 0.089234799 0.061264999
0.060685098 0.091737203 0.062104199
0.073670603 0.094300799 0.062989198
0.086671203 0.096849002 0.063919999
0.099641398 0.099351503 0.064820297
0.113512002 0.102007002 0.065690100
0.131715998 0.104814000 0.066132598
0.160052001 0.107362002 0.064988203
0.190738007 0.109880000 0.063477501
0.221453995 0.112351999 0.061951600
0.252200991 0.114869997 0.060425699
0.284168988 0.117586002 0.058945600
0.318441004 0.120499998 0.057450201
0.355275989 0.123475999 0.055863298
0.393103004 0.126421005 0.054215301
0.430837989 0.129397005 0.052613098
0.468497992 0.132235005 0.050949901
0.505088985 0.135332003 0.049576599
0.537728012 0.138871998 0.049149301
0.567498028 0.142656997 0.049408700
0.597009003 0.146502003 0.049744401
0.626519978 0.150316998 0.050019100
0.655573010 0.154238001 0.050400499
0.682627976 0.158343002 0.050919399
0.706264019 0.163011998 0.051728100
0.725871980 0.168764994 0.052750401
0.745647013 0.174623996 0.053727001
0.765469015 0.180528998 0.054688301
0.785138011 0.186464995 0.055634402
0.803586006 0.192248002 0.056519400
0.820813000 0.198367000 0.057358701
0.837536991 0.204913005 0.058014799
0.035721399 0.100481004 0.061875299
0.048401602 0.103074998 0.062790900
0.061310701 0.105775997 0.063706398
0.074219897 0.108461000 0.064667702
0.087113798 0.111207999 0.065629102
0.100008003 0.113985002 0.066620901
0.113770999 0.116761997 0.067551702
0.132203996 0.119615003 0.067917898
0.161181003 0.122179002 0.066651396
0.192629993 0.124819003 0.064988203
0.223925993 0.127275005 0.063309699
0.255497009 0.129823998 0.061631199
0.287921995 0.132540002 0.060013700
0.322834998 0.135408998 0.058365799
0.359914988 0.138399005 0.056671999
0.397803009 0.141283005 0.054886699
0.435584009 0.144152001 0.053116702
0.473381013 0.147097006 0.051361900
0.509757996 0.150224999 0.049973302
0.542428017 0.153718993 0.049576599
0.572136998 0.157701999 0.049881700
0.601709008 0.161578000 0.050217401
0.631403029 0.165499002 0.050507400
0.660715997 0.169574007 0.050873600
0.687799990 0.174394995 0.051453400
0.711054981 0.179995000 0.052368999
0.731121004 0.186556995 0.053482901
0.751246989 0.193118006 0.054520499
0.771449983 0.199771002 0.055603899
0.791409016 0.206256002 0.056611001
0.810239017 0.212908998 0.057618100
0.827543020 0.219638005 0.058503099
0.843762994 0.226932004 0.059250802
0.036423299 0.114839002 0.063462302
0.049042501 0.117601000 0.064438798
0.061936401 0.120439000 0.065461203
0.074860796 0.123338997 0.066514097
0.087724097 0.126206994 0.067566901
0.100617997 0.129136994 0.068665601
0.114260003 0.132052004 0.069657400
0.132815003 0.135195002 0.070054203
0.162141994 0.137911007 0.068772398
0.193850994 0.140597001 0.067063399
0.225589007 0.143373996 0.065384902
0.257176012 0.146257997 0.063645400
0.289815009 0.149477005 0.062012699
0.324788004 0.152895004 0.060334198
0.362035990 0.156114995 0.058472600
0.399984986 0.159410998 0.056580499
0.438208997 0.162493005 0.054673102
0.476447999 0.165682003 0.052719899
0.512978017 0.169024006 0.051255099
0.545892000 0.173068002 0.050843101
0.575798988 0.177416995 0.051071901
0.605753005 0.181642994 0.051300801
0.635797977 0.185824007 0.051407602
0.665445983 0.190188006 0.051667001
0.692592025 0.194949001 0.052185901
0.715694010 0.200824007 0.053192999
0.736095011 0.207445994 0.054383200
0.756527007 0.214221001 0.055527601
0.777095973 0.221027002 0.056641500
0.797420979 0.227862999 0.057785898
0.816541016 0.234698996 0.058869299
0.834011972 0.241763994 0.059861101
0.849744022 0.249805003 0.060700402
0.036697902 0.130709007 0.065476499
0.049332399 0.133683994 0.066605598
0.062333100 0.136933997 0.067780599
0.075364299 0.140351996 0.069031797
0.088380300 0.143770993 0.070252500
0.101380996 0.147065997 0.071457997
0.115084000 0.150591001 0.072632901
0.133607998 0.154359996 0.073136501
0.162065998 0.157977000 0.071946301
0.192752004 0.161745995 0.070420399
0.223377004 0.165499002 0.068848699
0.254047006 0.169481993 0.067307502
0.285831988 0.173418999 0.065659598
0.320728987 0.177141994 0.063889503
0.358877003 0.180194005 0.061814301
0.398184001 0.183351994 0.059723798
0.437521994 0.186251998 0.057526499
0.477012008 0.189074993 0.055298701
0.514716983 0.192537993 0.053727001
0.548103988 0.196383998 0.053131901
0.578485012 0.200443000 0.053116702
0.608880997 0.204730004 0.053162400
0.639414012 0.208743006 0.053131901
0.669505000 0.212970003 0.053162400
0.697001994 0.217776999 0.053528599
0.719950974 0.223743007 0.054566301
0.740657985 0.230410993 0.055725899
0.761485994 0.237048998 0.056900900
0.782329977 0.243792996 0.058075801
0.803005993 0.250461996 0.059189700
0.822354019 0.257495999 0.060349401
0.840023994 0.264607012 0.061478600
0.855390012 0.273059994 0.062424701
0.036560599 0.147691995 0.067978904
0.049317200 0.151095003 0.069230199
0.062516198 0.154833004 0.070557699
0.075730503 0.158555999 0.071869999
0.088914298 0.162279993 0.073197499
0.102159001 0.166140005 0.074570797
0.115952998 0.170062006 0.075852603
0.134386003 0.174517006 0.076447703
0.161868006 0.179095000 0.075410098
0.191257000 0.183871001 0.074051999
0.220630005 0.188785002 0.072632901
0.249881998 0.193866000 0.071244404
0.280613005 0.198779002 0.069688000
0.315160006 0.203219995 0.067856900
0.354391009 0.206348002 0.065583304
0.395177990 0.209049001 0.063202903
0.435995996 0.211658001 0.060746200
0.477104008 0.214221001 0.058304701
0.515923023 0.217212006 0.056443099
0.550118029 0.220690995 0.055634402
0.580972016 0.224703997 0.055451300
0.611901999 0.228641003 0.055191901
0.642802000 0.232440993 0.054993499
0.673487008 0.236439005 0.054779898
0.701259017 0.241046995 0.055008799
0.724178016 0.247105002 0.056061599
0.745235026 0.253574014 0.057206102
0.766339004 0.260197014 0.058457300
0.787549019 0.266757995 0.059586499
0.808544993 0.273456991 0.060746200
0.828077018 0.280324012 0.061921101
0.846005976 0.287510008 0.063157097
0.861006021 0.296422005 0.064255700
0.036286000 0.165132999 0.070664503
0.049149301 0.168795004 0.071976803
0.062592499 0.172914997 0.073395900
0.076005198 0.177081004 0.074845500
0.089478903 0.181323007 0.076310404
0.102922000 0.185534000 0.077775203
0.116777003 0.189882994 0.079179101
0.135119006 0.194841996 0.079789400
0.161501005 0.200580001 0.078965403
0.189792007 0.206348002 0.077714197
0.217852995 0.212145999 0.076447703
0.245853007 0.218250006 0.075181201
0.275379986 0.224369004 0.073762096
0.309621006 0.229296997 0.071824200
0.349828005 0.232409999 0.069367498
0.392080992 0.234623000 0.066666700
0.434516013 0.236973003 0.063996300
0.477104008 0.239291996 0.061249699
0.517205000 0.241946995 0.059174500
0.552040994 0.245196998 0.058228400
0.583504975 0.248859003 0.057770699
0.614786029 0.252476007 0.057297599
0.646326005 0.256123006 0.056824598
0.677531004 0.259860992 0.056321099
0.705546975 0.264286011 0.056427900
0.728434980 0.270404994 0.057541799
0.749782979 0.276829004 0.058701500
0.771282017 0.283345014 0.059906900
0.792813003 0.289723009 0.061066601
0.814099014 0.296330005 0.062256798
0.833859980 0.303196996 0.063507996
0.851713002 0.310597003 0.064835601
0.866681993 0.319752991 0.066132598
0.036041800 0.182604998 0.073380597
0.049012002 0.186602995 0.074769199
0.062653497 0.191135004 0.076295100
0.076310404 0.195696995 0.077866800
0.089982502 0.200335994 0.079438500
0.103638999 0.205035001 0.081010103
0.117617004 0.209781006 0.082535997
0.135804996 0.215563998 0.083268501
0.161241993 0.221941993 0.082505502
0.188265994 0.228733003 0.081391603
0.215167001 0.235569000 0.080277704
0.241855994 0.242741004 0.079179101
0.270359010 0.249743998 0.077790499
0.304172993 0.255268008 0.075791597
0.345250994 0.258334994 0.073105998
0.389120013 0.260365009 0.070206799
0.433021009 0.262364000 0.067261800
0.477286994 0.264256001 0.064225197
0.518471003 0.266667008 0.061966900
0.554100990 0.269656986 0.060700402
0.585961998 0.273045003 0.059998501
0.617852986 0.276432008 0.059327099
0.649789989 0.279805005 0.058594599
0.681452990 0.283237994 0.057984300
0.709910989 0.287678003 0.057892699
0.732662022 0.293644994 0.058976099
0.754437029 0.300038010 0.060181599
0.776225984 0.306401014 0.061386999
0.798076987 0.312779009 0.062561996
0.819775999 0.319265008 0.063798003
0.839718997 0.326130986 0.065079696
0.857205987 0.333882987 0.066544600
0.872358024 0.343053013 0.068055198
0.035782401 0.200075999 0.076081499
0.048874602 0.204334006 0.077561602
0.062729798 0.209399998 0.079240099
0.076600298 0.214388996 0.080888100
0.090455502 0.219378993 0.082566597
0.104326002 0.224566996 0.084275603
0.118441001 0.229876995 0.085969299
0.136537999 0.236178994 0.086732298
0.160936996 0.243503004 0.086091399
0.186876997 0.251147985 0.085099600
0.212512001 0.259021997 0.084123001
0.238086998 0.267048001 0.083161697
0.265491992 0.275059015 0.081834100
0.298619002 0.281590015 0.079804704
0.340826005 0.284428000 0.076905496
0.386023015 0.286029994 0.073731601
0.431571007 0.287678003 0.070481397
0.477225989 0.289296001 0.067231297
0.519814014 0.291341007 0.064682998
0.556053996 0.293965012 0.063187599
0.588524997 0.297185004 0.062287301
0.620844007 0.300435007 0.061341301
0.653375983 0.303548008 0.060349401
0.685557008 0.306690991 0.059479699
0.714182973 0.310871989 0.059281301
0.736980021 0.316884011 0.060440999
0.759091020 0.323293000 0.061661702
0.781230986 0.329488009 0.062851898
0.803403020 0.335743994 0.064164199
0.825375974 0.342260003 0.065613799
0.845533013 0.349310011 0.067170203
0.862608016 0.357533991 0.069077604
0.877852023 0.366766006 0.070984997
0.035553500 0.218021005 0.078889102
0.048722100 0.222644001 0.080476098
0.062775597 0.227938995 0.082200304
0.076844402 0.233355999 0.084000900
0.090943798 0.238787994 0.085816696
0.105012998 0.244296998 0.087663099
0.119280003 0.250003994 0.089478903
0.137513995 0.256870002 0.090333402
0.161532000 0.264941990 0.089814603
0.186785996 0.273364991 0.088914298
0.211765006 0.282216012 0.088120803
0.236636996 0.290959001 0.087266304
0.263202995 0.299885988 0.086137198
0.296086013 0.306935012 0.084214501
0.338337988 0.310048014 0.081452698
0.383917004 0.311910003 0.078416102
0.429740012 0.313924015 0.075410098
0.475562990 0.315892011 0.072297201
0.518501997 0.318028986 0.069810003
0.555549979 0.320928007 0.068253599
0.588647008 0.323796004 0.067124397
0.621836007 0.326710999 0.065995298
0.655116022 0.329503000 0.064850800
0.688151002 0.332509011 0.063843697
0.717540026 0.336645007 0.063614897
0.740414023 0.342611015 0.064942397
0.762844026 0.348791003 0.066285200
0.785320997 0.355015993 0.067658499
0.807888985 0.361303002 0.069016598
0.830166996 0.367437005 0.070405103
0.850462019 0.374242991 0.072037801
0.867200971 0.382467002 0.074113101
0.882475019 0.391530991 0.076340899
0.035309400 0.236255005 0.081742600
0.048569500 0.241154000 0.083405800
0.062851898 0.246876001 0.085313201
0.077134401 0.252644002 0.087235801
0.091401502 0.258457005 0.089173697
0.105699003 0.264301986 0.091157399
0.120134003 0.270267993 0.093156300
0.138888001 0.277745008 0.094148196
0.162904993 0.286320001 0.093751401
0.188296005 0.295307994 0.093034297
0.213642001 0.304493994 0.092332304
0.238911003 0.313787013 0.091599897
0.265689999 0.323217005 0.090608098
0.298359990 0.330693990 0.088960104
0.339590013 0.334919989 0.086594902
0.383749008 0.338032991 0.084107697
0.428000003 0.341145992 0.081574701
0.472267002 0.344610006 0.079117998
0.514702022 0.347813994 0.076951303
0.552299976 0.350652009 0.075349003
0.586618006 0.353154987 0.074113101
0.621118009 0.355688006 0.072831303
0.655528009 0.357960999 0.071549602
0.689921021 0.360403001 0.070313603
0.720255971 0.363958001 0.069962598
0.743389010 0.369879007 0.071320698
0.766155005 0.375891000 0.072724499
0.788982987 0.381888002 0.074128300
0.811765015 0.387625009 0.075425297
0.834348023 0.393590987 0.076844402
0.854916990 0.400092006 0.078538202
0.871259987 0.408086985 0.080735497
0.886564016 0.416586995 0.083009101
0.035156801 0.254749000 0.084809601
0.048508398 0.259846002 0.086594902
0.063004501 0.265857995 0.088654898
0.077515803 0.271991998 0.090745397
0.092042401 0.278232992 0.092912197
0.106537998 0.284366995 0.095048398
0.121201999 0.290592998 0.097184703
0.140429005 0.298375010 0.098222300
0.164934993 0.307485014 0.097932398
0.190723002 0.316944987 0.097306803
0.216647997 0.326528013 0.096665896
0.242541999 0.336172014 0.095979303
0.269566000 0.345982999 0.095124699
0.302509993 0.353947997 0.093736202
0.342245013 0.359517992 0.091920301
0.384557992 0.364262998 0.090074003
0.426642001 0.369038999 0.088212401
0.468634993 0.374487013 0.086533897
0.509757996 0.379126012 0.084855400
0.547996998 0.381994009 0.083253197
0.583855987 0.383825004 0.081803598
0.619699001 0.385580003 0.080384500
0.655695021 0.387320012 0.078965403
0.691447020 0.389043987 0.077576898
0.722926974 0.392186999 0.077073298
0.746241987 0.397588998 0.078309298
0.769329011 0.403066993 0.079560503
0.792415977 0.408773988 0.080994897
0.815609992 0.414312989 0.082291901
0.838437021 0.419867009 0.083604202
0.859174013 0.425864011 0.085221604
0.875272989 0.433737993 0.087525703
0.890561998 0.441671997 0.089890897
0.035080500 0.273364991 0.088075101
0.048538901 0.278782010 0.089997701
0.063233398 0.285008013 0.092179798
0.077973597 0.291492999 0.094468601
0.092698596 0.297856003 0.096742198
0.107484996 0.304325998 0.099061601
0.122331999 0.310887009 0.101426996
0.142275006 0.319081008 0.102509998
0.167329997 0.328480989 0.102251001
0.193744004 0.338398993 0.101671003
0.220142007 0.348423988 0.101075999
0.246647000 0.358464986 0.100435004
0.273975998 0.368566006 0.099641398
0.306690991 0.377263993 0.098542802
0.345097989 0.384146005 0.097322002
0.385244995 0.390386999 0.096055500
0.425375998 0.397161990 0.094926402
0.465216994 0.403890997 0.093751401
0.505164981 0.410025001 0.092515402
0.543770015 0.413291007 0.091050602
0.581032991 0.414434999 0.089478903
0.618341029 0.415533990 0.087892003
0.655740976 0.416509986 0.086289801
0.693033993 0.417670012 0.084763899
0.725535989 0.420127004 0.084123001
0.749110997 0.425345004 0.085297897
0.772534013 0.430685997 0.086579703
0.795925975 0.435721010 0.087800398
0.819424987 0.440802991 0.088975400
0.842495978 0.446143001 0.090318203
0.863523006 0.451698005 0.091920301
0.879225016 0.459174007 0.094361797
0.894529998 0.466728002 0.096818499
0.035019498 0.292165011 0.091477796
0.048554201 0.297596991 0.093446203
0.063507996 0.304311007 0.095841900
0.078446597 0.310948014 0.098252803
0.093415700 0.317586005 0.100663997
0.108384997 0.324360996 0.103136003
0.123461001 0.331227988 0.105699003
0.144121006 0.339848995 0.106858999
0.169756994 0.349752009 0.106645003
0.196688995 0.359959990 0.106064998
0.223666996 0.370335996 0.105485998
0.250735998 0.380789012 0.104891002
0.278308988 0.391256988 0.104143001
0.310887009 0.400702000 0.103409998
0.347799003 0.408865005 0.102663003
0.386023015 0.416723996 0.102022000
0.424048007 0.424856991 0.101442002
0.461966991 0.433508992 0.100969002
0.500663996 0.440741986 0.100098997
0.539605021 0.444525987 0.098741099
0.578302026 0.445014000 0.097032100
0.616998971 0.445486993 0.095384099
0.655939996 0.445762008 0.093614101
0.694513977 0.446188986 0.091905102
0.728160977 0.448157012 0.091172703
0.751933992 0.453040004 0.092317097
0.775677025 0.457816005 0.093476802
0.799390018 0.462455004 0.094605900
0.823148012 0.467308015 0.095811397
0.846448004 0.472113997 0.097077899
0.867735028 0.477302015 0.098634303
0.883145988 0.484443009 0.101167001
0.898465991 0.491600007 0.103761002
0.035080500 0.310779989 0.094819598
0.048661001 0.316457003 0.096910000
0.063813202 0.323338985 0.099427797
0.078996003 0.330265999 0.101990998
0.094193898 0.337361991 0.104662001
0.109376997 0.344334990 0.107239999
0.124590002 0.351431012 0.109926000
0.145968005 0.360433012 0.111116000
0.172183007 0.370824993 0.110994004
0.199603006 0.381383985 0.110399000
0.227100000 0.392049998 0.109834000
0.254642993 0.402853012 0.109255001
0.282628000 0.413839996 0.108629003
0.315007001 0.423835009 0.108185999
0.350820005 0.433310002 0.107973002
0.387396008 0.442496002 0.107850999
0.423850000 0.452109993 0.107804999
0.460074991 0.462013006 0.107819997
0.497536004 0.470863014 0.107500002
0.536538005 0.474922001 0.106293999
0.576150000 0.474891007 0.104584999
0.616159022 0.474815011 0.102891997
0.656167984 0.474510014 0.101106003
0.695918024 0.474631995 0.099488802
0.730265975 0.476096988 0.098695397
0.754451990 0.480506986 0.099717699
0.778485000 0.484932005 0.100800999
0.802501976 0.489219010 0.101853997
0.826641977 0.493613988 0.103014000
0.850126028 0.498039007 0.104234003
0.871442974 0.502846003 0.105881996
0.886686981 0.509316027 0.108613998
0.902006984 0.515908003 0.111466996
0.035385702 0.329212993 0.098115496
0.048996702 0.335058004 0.100313000
0.064377800 0.342245013 0.102982998
0.079728402 0.349415988 0.105683997
0.095094196 0.356541991 0.108400002
0.110475004 0.363896996 0.111222997
0.125887007 0.371282995 0.114122003
0.147936001 0.380712986 0.115296997
0.174655005 0.391241014 0.115129001
0.202564001 0.402152002 0.114611000
0.230442002 0.413107991 0.114060998
0.258487999 0.424246997 0.113512002
0.286716998 0.435537994 0.112931997
0.319249004 0.446220011 0.112764001
0.354452014 0.456611007 0.112977996
0.390112013 0.467063010 0.113312997
0.425909996 0.477485001 0.113710001
0.461737990 0.487967998 0.114183001
0.498771995 0.497108012 0.114198998
0.537513971 0.501533985 0.113541998
0.577386022 0.501671016 0.112230003
0.617165983 0.501700997 0.110978998
0.657176018 0.501945019 0.109757997
0.696788013 0.502143979 0.108567998
0.731181979 0.503715992 0.108140998
0.755748987 0.507575989 0.109102003
0.780102015 0.511466980 0.110184997
0.804485977 0.515236020 0.111253999
0.828840017 0.519005001 0.112366997
0.852720022 0.522880971 0.113603003
0.874082983 0.527168989 0.115221001
0.889371991 0.533257008 0.118013002
0.904645979 0.539207995 0.120897003
0.035919700 0.347416997 0.101350002
0.049576599 0.353428990 0.103655003
0.065049201 0.360707998 0.106416002
0.080582902 0.368124008 0.109284997
0.096116602 0.375616014 0.112184003
0.111666001 0.383062005 0.115098998
0.127244994 0.390738010 0.118151002
0.149981007 0.400458008 0.119326003
0.177157000 0.411336988 0.119158000
0.205402002 0.422491997 0.118653998
0.233768001 0.433477998 0.118151002
0.262181014 0.444525987 0.117647000
0.290959001 0.455924004 0.117188998
0.324117005 0.466818988 0.117371999
0.359640002 0.477530986 0.117936999
0.395651013 0.488288999 0.118639000
0.431632012 0.499305993 0.119401999
0.467658013 0.510444999 0.120180003
0.504478991 0.519874990 0.120637998
0.542823970 0.524375975 0.120577000
0.581659019 0.525277019 0.120104000
0.620462000 0.526359975 0.119737998
0.659021974 0.527702987 0.119493000
0.697322011 0.528984010 0.119172998
0.730892003 0.531135976 0.119387001
0.755917013 0.534447014 0.120378003
0.780636013 0.537652016 0.121416003
0.805370986 0.540749013 0.122437999
0.830213010 0.543954015 0.123613000
0.854336977 0.547020972 0.124727003
0.875975013 0.550835013 0.126467004
0.891202986 0.556207001 0.129273996
0.906476974 0.561623991 0.132203996
0.036484301 0.365713000 0.104630999
0.050080098 0.371648997 0.106935002
