assets/Mood-Film-02.cube
TITLE "33x33x33 Adobe/IRIDAS cube 3D LUT exported with GrossGrade v0.2.2 (beta) 64 bit"
DOMAIN_MIN 0 0 0
DOMAIN_MAX 1 1 1
LUT_3D_SIZE 33
0.021789899 0.022125600 0.024750100
0.042282701 0.022354500 0.025070600
0.062592499 0.022766501 0.025528301
0.081422098 0.023498900 0.026108200
0.098527499 0.023682000 0.026596500
0.117936999 0.024063500 0.026810100
0.134783000 0.024063500 0.026916901
0.152238995 0.024246600 0.026901700
0.174394995 0.024155000 0.026810100
0.197879001 0.024078701 0.026749101
0.227526993 0.024399200 0.026550701
0.260120988 0.024765400 0.026443901
0.292470008 0.025116401 0.026108200
0.321218014 0.025436800 0.025451999
0.347723007 0.025726700 0.025375800
0.373816013 0.026016600 0.025665700
0.402761996 0.026337100 0.025986100
0.433234006 0.026672799 0.026321800
0.462913007 0.026993200 0.026657499
0.491371006 0.027313599 0.026962699
0.519325972 0.027618799 0.027283100
0.546074986 0.027923999 0.027573099
0.572731972 0.028213900 0.027863000
0.598474026 0.028488601 0.028152900
0.624490976 0.028778501 0.028442800
0.650263011 0.029068399 0.028732700
0.676081002 0.029358400 0.029007399
0.701991022 0.029648300 0.029297300
0.727626026 0.029922901 0.029587200
0.753826022 0.030212900 0.029877201
0.779828012 0.030502800 0.030289199
0.806286991 0.030792700 0.030853700
0.833218992 0.031097900 0.031342000
0.022537600 0.042816799 0.025970900
0.043167800 0.043244101 0.026291300
0.063599601 0.043656100 0.026749101
0.082535997 0.043823902 0.027161101
0.100160003 0.043884899 0.027389901
0.119707003 0.043946002 0.027756199
0.136553004 0.044113800 0.028015601
0.153779998 0.043595001 0.027878201
0.175738007 0.043564498 0.027939299
0.198642001 0.043595001 0.027786700
0.227816999 0.043854401 0.027710401
0.260165989 0.044296902 0.027466200
0.292241007 0.044419002 0.027100001
0.320989013 0.045578700 0.026581200
0.347508997 0.047058798 0.026138701
0.373861015 0.048386399 0.026474399
0.403281003 0.049744401 0.026825400
0.433997005 0.050736200 0.027191600
0.463752002 0.051438201 0.027542500
0.492363006 0.051926501 0.027863000
0.520165026 0.052246898 0.028168200
0.546929002 0.052536801 0.028458100
0.573480010 0.052811500 0.028763300
0.599282980 0.053086098 0.029037900
0.625253975 0.053345501 0.029327800
0.650964975 0.053604901 0.029617799
0.676798999 0.053803299 0.029892400
0.702921987 0.053986400 0.030182300
0.728847027 0.054138999 0.030655401
0.755154014 0.054261100 0.031372599
0.781521022 0.054612000 0.031982899
0.808086991 0.056168500 0.032547500
0.835156977 0.057953801 0.033050999
0.023300501 0.063843697 0.027161101
0.044052798 0.064103097 0.027618799
0.064606696 0.064179398 0.027923999
0.083695702 0.064316802 0.028351299
0.102007002 0.064072601 0.028580099
0.121508002 0.063813202 0.028824300
0.138170004 0.063981101 0.028976901
0.155534998 0.063294403 0.029007399
0.177127004 0.063507996 0.029114200
0.199663997 0.063477501 0.028976901
0.228488997 0.064225197 0.028931100
0.260410011 0.065339103 0.028824300
0.292149007 0.067048103 0.028503900
0.320928007 0.068650298 0.028107099
0.347508997 0.069993101 0.027512001
0.374303997 0.070801899 0.027283100
0.404395014 0.072968602 0.027679900
0.435142010 0.074570797 0.028061301
0.465171009 0.075639002 0.028427601
0.493735999 0.076310404 0.028748000
0.521598995 0.076646097 0.029053200
0.547950983 0.076920703 0.029343100
0.574639022 0.077164903 0.029648300
0.600290000 0.077408999 0.029922901
0.626474023 0.077653199 0.030212900
0.652109981 0.078141503 0.030502800
0.678187013 0.079499498 0.031280998
0.704280019 0.081071198 0.032166000
0.730251014 0.082795501 0.033050999
0.756832004 0.084412903 0.033722401
0.783092976 0.086015098 0.034317501
0.810315013 0.087830901 0.034805801
0.837567985 0.089616202 0.035172001
0.024048200 0.084290802 0.028168200
0.044907302 0.084702797 0.028641200
0.065568000 0.084946997 0.028961601
0.084748603 0.084687598 0.029404100
0.103364997 0.084687598 0.029572001
0.123125002 0.084153503 0.029877201
0.140092999 0.084000900 0.030472299
0.157609999 0.083695702 0.030548600
0.178927004 0.084412903 0.030609600
0.201389000 0.084718101 0.030655401
0.229770005 0.086152397 0.030670600
0.261128008 0.087907203 0.030609600
0.292423993 0.090135001 0.030273899
0.321157008 0.093003698 0.029922901
0.347950995 0.095414698 0.029465200
0.375021011 0.098054498 0.029144701
0.405570000 0.100252002 0.028809000
0.437094986 0.101778001 0.029053200
0.467292011 0.102541000 0.029404100
0.495949000 0.103257999 0.029739801
0.523949027 0.103716001 0.030060301
0.550285995 0.104601003 0.030365501
0.576837003 0.105745003 0.030701200
0.602379978 0.107148997 0.031448800
0.628518999 0.108827002 0.032425400
0.654413998 0.110795997 0.033463001
0.680369020 0.112824999 0.034470100
0.705989003 0.115098998 0.035446700
0.732082009 0.116669998 0.036331698
0.758526027 0.118089996 0.036881100
0.784938991 0.120287001 0.037491400
0.812161028 0.122408003 0.038010199
0.838666022 0.124513999 0.038437501
0.024795899 0.104707003 0.029037900
0.045731299 0.104828998 0.029434700
0.066498801 0.105485998 0.029800899
0.085801497 0.105608001 0.030167099
0.104691997 0.105149999 0.030533301
0.124727003 0.104753003 0.030914800
0.142321005 0.104509003 0.031708200
0.160067007 0.104874998 0.032288101
0.180987000 0.105791003 0.032425400
0.203342006 0.106873997 0.032425400
0.231037006 0.108658999 0.032501701
0.262042999 0.111451998 0.032654300
0.292943001 0.114473000 0.032349098
0.321644992 0.117982998 0.032150801
0.348470002 0.121172003 0.031708200
0.376042992 0.124619998 0.031525102
0.407415986 0.128343999 0.031250499
0.439505994 0.130831003 0.031372599
0.470328987 0.132952005 0.031479400
0.499550015 0.134173006 0.031845599
0.527459025 0.135667995 0.032364398
0.554069996 0.136629000 0.033157900
0.580438018 0.138659000 0.034134399
0.605982006 0.140443996 0.035217799
0.631693006 0.142732993 0.036209699
0.656930983 0.145570993 0.037476201
0.682474971 0.147539005 0.038498498
0.708064020 0.150011003 0.039566599
0.733883023 0.152407005 0.040436398
0.759823024 0.154620007 0.041107800
0.786404014 0.156466007 0.041687600
0.813870013 0.158693999 0.042267501
0.837750971 0.161181003 0.042771000
0.025390999 0.121262997 0.029404100
0.046280600 0.121735997 0.029938200
0.066941299 0.122118004 0.030350201
0.086213499 0.122437999 0.030914800
0.105287001 0.122437999 0.031387798
0.125551000 0.122713000 0.031921901
0.144060001 0.123415001 0.032837398
0.162920997 0.124407001 0.033661399
0.183992997 0.126664996 0.034454901
0.206302002 0.128953993 0.034561701
0.233906001 0.131669998 0.034699000
0.264546007 0.135561004 0.034790602
0.295109004 0.139437005 0.034851599
0.323491007 0.143373996 0.034668501
0.350454003 0.147508994 0.034424402
0.378378004 0.151904002 0.034317501
0.410636008 0.156480998 0.034409098
0.443351001 0.160265997 0.034637999
0.474555999 0.162661001 0.034912601
0.504218996 0.164828002 0.035370398
0.532249987 0.166383997 0.036148600
0.559121013 0.168399006 0.037247300
0.585381985 0.170931995 0.038529001
0.610803008 0.172992006 0.039841302
0.636148989 0.175752997 0.041275699
0.661234021 0.178987995 0.042709999
0.686625004 0.181826994 0.044174898
0.711498022 0.184664994 0.045487098
0.737194002 0.187076002 0.046555299
0.763180017 0.189868003 0.047608100
0.789487004 0.192798004 0.048554201
0.814037979 0.195345998 0.049546000
0.837369025 0.198428005 0.050659999
0.025879299 0.134599999 0.029617799
0.046555299 0.135424003 0.030090800
0.067017600 0.136141002 0.030701200
0.086167701 0.136950001 0.031326801
0.105408996 0.137957007 0.032074500
0.125718996 0.139208004 0.032761101
0.145418003 0.141252995 0.033829302
0.165682003 0.143389001 0.035080500
0.187639996 0.147203997 0.036270700
0.210284993 0.151079997 0.037079401
0.237613007 0.155688003 0.037201501
0.268283993 0.160555005 0.037369300
0.298557997 0.165545002 0.037643999
0.327015996 0.169817999 0.037384599
0.354054987 0.173831001 0.037338801
0.382589012 0.178836003 0.037521899
0.415502995 0.184070006 0.037964400
0.448478013 0.188005999 0.038437501
0.480140001 0.191211000 0.038925800
0.510536015 0.194049001 0.039963402
0.538932979 0.196566999 0.041123100
0.566033006 0.199283004 0.042649001
0.592004001 0.201801002 0.044251200
0.617318988 0.205202997 0.046112798
0.642283022 0.208820000 0.047943801
0.666697025 0.212450996 0.049958002
0.691340983 0.216113999 0.051819600
0.715816021 0.219821006 0.053543899
0.740931988 0.223254994 0.055130798
0.766308010 0.227175996 0.056641500
0.791333020 0.230410993 0.058243699
0.814176023 0.233752996 0.060090002
0.837231994 0.237140000 0.061783802
0.026245501 0.145052001 0.029617799
0.046585798 0.146044001 0.030243400
0.066712402 0.147111997 0.030884299
0.085709900 0.148546994 0.031693000
0.105012998 0.150973007 0.032593299
0.125963002 0.153688997 0.033569898
0.146868005 0.157472998 0.034973700
0.168642998 0.161653996 0.036453798
0.191714004 0.167238995 0.037994999
0.215243995 0.172685996 0.039414100
0.242175996 0.179399997 0.040299099
0.272785991 0.186038002 0.040573701
0.302800000 0.191866994 0.040573701
0.331472009 0.196887001 0.040711101
0.358709008 0.201784998 0.040802602
0.387564003 0.206820995 0.041062001
0.420736998 0.212528005 0.041855499
0.454275995 0.217593998 0.042832099
0.486274987 0.221088007 0.043701801
0.517143011 0.224932998 0.045242999
0.545768976 0.228016004 0.046814699
0.573006988 0.231539994 0.048905201
0.599144995 0.235736996 0.051407602
0.624369025 0.239917994 0.054078002
0.648797989 0.244479999 0.056580499
0.672846973 0.248752996 0.059510201
0.697229981 0.253345996 0.062089000
0.721035004 0.257939011 0.064881399
0.745845973 0.262028009 0.067307502
0.770672023 0.266056001 0.069993101
0.792752028 0.269780010 0.072449803
0.815137029 0.273640007 0.075333796
0.837689996 0.277774990 0.078248300
0.026474399 0.151338995 0.029434700
0.046280600 0.152895004 0.030167099
0.065918997 0.154405996 0.030929999
0.084779099 0.156909004 0.031799801
0.104128003 0.160936996 0.032913700
0.125963002 0.165804997 0.034226000
0.148561999 0.172168002 0.035858698
0.171817005 0.178927004 0.037781298
0.196323007 0.186770007 0.039734501
0.220798001 0.194445997 0.041733399
0.247745007 0.203159004 0.043640800
0.277774990 0.211275995 0.044174898
0.307790011 0.219013005 0.044449501
0.336721003 0.225009993 0.044434302
0.364262998 0.230593994 0.044785202
0.393438995 0.236148998 0.045395602
0.427130997 0.242495999 0.046402700
0.460716009 0.248294994 0.047653899
0.493553013 0.253131986 0.049301900
0.524680972 0.257649004 0.051438201
0.553520977 0.262057990 0.053925399
0.580986977 0.266407013 0.056961901
0.606867015 0.271595001 0.060257901
0.631951988 0.276722014 0.063752197
0.656122983 0.281910002 0.067704298
0.679773986 0.286747992 0.071534298
0.703531981 0.291630000 0.074952297
0.726939976 0.296772987 0.078996003
0.751658976 0.301854014 0.082703903
0.773175001 0.307285994 0.086930603
0.794797003 0.311971009 0.091157399
0.816815019 0.316776991 0.095811397
0.838986993 0.321842998 0.100648999
0.026733801 0.158494994 0.029205799
0.046051700 0.160570994 0.030029800
0.065217100 0.162631005 0.030869000
0.084092498 0.165788993 0.031876098
0.103272997 0.171313003 0.033173099
0.126558006 0.178087994 0.034729499
0.150529996 0.187227994 0.036759000
0.175203994 0.196582004 0.038971499
0.200609997 0.206728995 0.041443501
0.226046994 0.216754004 0.044007000
0.253253996 0.226962999 0.046555299
0.282932997 0.237018004 0.048783101
0.312321991 0.245471999 0.049088299
0.341587991 0.252597988 0.049134001
0.369435996 0.258929998 0.049668100
0.399329007 0.265567988 0.050446302
0.433753014 0.272769988 0.051834900
0.468162000 0.279942006 0.053894900
0.501487970 0.285771012 0.056137901
0.533088982 0.291462988 0.058899801
0.562355995 0.296986014 0.062409401
0.589974999 0.302204996 0.066208899
0.615732014 0.308171004 0.070557699
0.640558004 0.314076006 0.075272799
0.664515018 0.320531011 0.080262497
0.687892020 0.327320993 0.085969299
0.711192012 0.333638996 0.091142103
0.734324992 0.340124011 0.097184703
0.756542027 0.345876008 0.102617003
0.776593029 0.351521999 0.108537003
0.797680974 0.356435001 0.114487998
0.819393992 0.361837000 0.120150000
0.841244996 0.366719991 0.125398993
0.027069500 0.167666003 0.029068399
0.045929700 0.169970006 0.029846599
0.064667702 0.172365993 0.030746900
0.083741501 0.176318005 0.031937100
0.103014000 0.182772994 0.033341002
0.127839997 0.191257000 0.035080500
0.152955994 0.203173995 0.037384599
0.178973004 0.215701997 0.040253300
0.205234006 0.228579998 0.043182999
0.231188998 0.240832999 0.046601102
0.258731991 0.252842009 0.050049599
0.288639992 0.264149010 0.053223498
0.317723006 0.274022013 0.055359699
0.347158015 0.281940997 0.056214198
0.375463009 0.288700998 0.056763601
0.405950993 0.296330005 0.057816401
0.441320986 0.304935992 0.059662800
0.476660997 0.313511997 0.062043201
0.510703981 0.320836008 0.064988203
0.543038011 0.327793986 0.068818197
0.572777987 0.334585011 0.073243298
0.600365996 0.341405004 0.078309298
0.626092970 0.348318011 0.083741501
0.650919020 0.355825007 0.089646801
0.674341977 0.362996995 0.096269198
0.697139025 0.369940013 0.102571003
0.719814003 0.376928002 0.109255001
0.742199004 0.383596987 0.116013996
0.762112021 0.389028996 0.122423001
0.781719983 0.394766003 0.129076004
0.802411020 0.399145007 0.135256007
0.823742986 0.403494000 0.139405996
0.845182002 0.407568008 0.143724993
0.027634099 0.183535993 0.028976901
0.046356902 0.186404005 0.029816100
0.064972900 0.189105004 0.030777400
0.084458701 0.193774000 0.032028701
0.104997002 0.201129004 0.033478301
0.129580006 0.209383994 0.035187300
0.155596003 0.223971993 0.037796602
0.182497993 0.238604993 0.041046798
0.209200993 0.254505008 0.044831000
0.236027002 0.269032001 0.048798401
0.263981014 0.281955987 0.053406600
0.294957012 0.293996006 0.057740100
0.325123996 0.304158002 0.061112400
0.354543000 0.312290996 0.063477501
0.382483006 0.320134014 0.065659598
0.412618995 0.328267008 0.067780599
0.448356003 0.338216007 0.070221998
0.484259993 0.347737998 0.072846599
0.519280016 0.356496990 0.076569803
0.552178025 0.364248008 0.080537103
0.582544029 0.372274011 0.085908301
0.610635996 0.379705012 0.091630399
0.636605978 0.388051987 0.097932398
0.660867989 0.395696998 0.104601003
0.683588982 0.403510004 0.111466996
0.705806017 0.410589993 0.118349001
0.727473974 0.416952997 0.125535995
0.748881996 0.423117012 0.132448003
0.768154025 0.428137988 0.138917997
0.787258983 0.432379991 0.144716993
0.807828009 0.436560988 0.149294004
0.828976989 0.440420985 0.153963998
0.850202024 0.443839014 0.158540994
0.028458100 0.206103995 0.029083701
0.047257200 0.208881006 0.029983999
0.065934204 0.211307004 0.030975800
0.085923597 0.215655997 0.032242302
0.107712999 0.223636001 0.033844501
0.131502002 0.231479004 0.035492498
0.158647999 0.247272000 0.038452700
0.186358005 0.264149010 0.042053901
0.213474005 0.282200009 0.046463698
0.241137996 0.298985004 0.051453400
0.269825011 0.313068986 0.056855101
0.301946014 0.324880004 0.062089000
0.333379000 0.334737003 0.066819303
0.362951010 0.343037993 0.069962598
0.390982002 0.351033986 0.072877102
0.420828998 0.360006005 0.076066203
0.455756009 0.370442986 0.080659203
0.490943998 0.380544990 0.084672302
0.526390016 0.389730990 0.088395499
0.559701025 0.398061991 0.092393398
0.590310991 0.405386001 0.097733997
0.618631005 0.413076997 0.103272997
0.644495010 0.420493007 0.109346002
0.668666005 0.427938998 0.115923002
0.691295028 0.435294002 0.122713000
0.713007987 0.442312986 0.129564002
0.734202981 0.449057996 0.136767000
0.755657017 0.455650002 0.144136995
0.774623990 0.460806996 0.150575995
0.793591022 0.466147989 0.156084999
0.813947022 0.470786989 0.161669001
0.834896982 0.474997997 0.166872993
0.856031001 0.479285985 0.172488004
0.029541500 0.236178994 0.029617799
0.048752598 0.238560006 0.030640099
0.067887403 0.241062000 0.031693000
0.088380300 0.245304003 0.032974701
0.110734999 0.251803994 0.034485400
0.134310007 0.258625001 0.036270700
0.161852002 0.273777008 0.039154600
0.190051004 0.290699989 0.042969398
0.217715994 0.309803993 0.048142198
0.246188998 0.327840000 0.053788099
0.276019990 0.341939002 0.059662800
0.309269994 0.352743000 0.065430701
0.341863006 0.361912996 0.070679799
0.371205986 0.369879007 0.074403003
0.398961991 0.377783000 0.077958301
0.427938998 0.386846989 0.082124099
0.462393999 0.397695988 0.087174803
0.496910006 0.408423007 0.092393398
0.531731009 0.417273015 0.097322002
0.565102994 0.425756991 0.101792999
0.596352994 0.433218986 0.106675997
0.624581993 0.440573990 0.111741997
0.650583982 0.447959006 0.117844999
0.674754024 0.455435991 0.124513999
0.697275996 0.462958992 0.131548002
0.719187975 0.470984995 0.139100999
0.740444005 0.478125989 0.147097006
0.761868000 0.485877991 0.154588997
0.781230986 0.491843998 0.160861000
0.800289989 0.498268008 0.167391002
0.820813000 0.504203975 0.173754007
0.842007995 0.509757996 0.180300996
0.863554001 0.516152024 0.187289000
0.030609600 0.265552998 0.030594300
0.050248001 0.267735004 0.031662501
0.069748998 0.269688010 0.032806899
0.090669103 0.273364991 0.034058101
0.113466002 0.278964996 0.035645101
0.138154998 0.284931988 0.037247300
0.165957004 0.299793988 0.040375400
0.194399998 0.316320002 0.044388499
0.222720996 0.336690009 0.049958002
0.251574993 0.354680985 0.056198999
0.282445014 0.369679987 0.062668800
0.316792995 0.379934013 0.068909697
0.350149006 0.388372988 0.074128300
0.379384995 0.395498991 0.078294002
0.406836003 0.403113008 0.082108803
0.435308993 0.411978006 0.086335503
0.468955994 0.422477007 0.092271298
0.502570987 0.432761014 0.097764596
0.537101984 0.441320986 0.102753997
0.569634974 0.449653000 0.107804999
0.600458026 0.456793994 0.113283001
0.628778994 0.464103013 0.118501998
0.655299008 0.471991986 0.124940999
0.679926991 0.480002999 0.132554993
0.703104973 0.489143014 0.140887007
0.725428998 0.498008996 0.149858996
0.747448027 0.507713020 0.157960996
0.769451022 0.517692983 0.166521996
0.788724005 0.525520980 0.174394995
0.807980001 0.533761024 0.182238996
0.828565001 0.540780008 0.189623997
0.849820971 0.547356009 0.196917996
0.871259987 0.553887010 0.204119995
0.031677701 0.295002997 0.031906601
0.051697601 0.296741992 0.033066299
0.071610600 0.299062014 0.034195501
0.092866398 0.302235007 0.035400901
0.115969002 0.307042003 0.036881100
0.142626002 0.312168986 0.038483299
0.170610994 0.326925009 0.041657101
0.199557006 0.343160003 0.045868602
0.228259996 0.364111006 0.052094299
0.257923007 0.382757008 0.058701500
0.289920986 0.399145007 0.066147901
0.325230986 0.408362001 0.072404101
0.358999014 0.416052014 0.077866800
0.388022006 0.422170997 0.081879899
0.415105999 0.429403991 0.085999802
0.442878008 0.437720001 0.090577602
0.475944012 0.447898000 0.096620098
0.508674979 0.457664013 0.102403000
0.542869985 0.466636002 0.107790001
0.575204015 0.474860996 0.113541998
0.605935991 0.482246011 0.119645998
0.634440005 0.490669012 0.126389995
0.661172986 0.499381989 0.134066001
0.685892999 0.508231997 0.142855003
0.709545016 0.518226981 0.151232004
0.732249975 0.527993023 0.159731001
0.754314005 0.538215995 0.168947995
0.775310993 0.547692001 0.177722007
0.794736028 0.556267977 0.186159998
0.814114988 0.564736009 0.194553003
0.834882021 0.572457016 0.202838004
0.856199026 0.579446018 0.210207999
0.877683997 0.586435020 0.218143001
0.032791600 0.325749993 0.033569898
0.053192999 0.328083992 0.034699000
0.073472202 0.330816001 0.035874002
0.095109500 0.334690988 0.037064198
0.118578002 0.339498013 0.038407002
0.148378998 0.345113009 0.039795499
0.176638007 0.359167010 0.043091498
0.205828995 0.374563009 0.047440302
0.234698996 0.395925999 0.053910099
0.264423996 0.415289998 0.061112400
0.296528995 0.433600008 0.069428504
0.332769006 0.443884999 0.076218799
0.366934001 0.451498985 0.081895202
0.396688998 0.456366986 0.085679397
0.424338013 0.462776005 0.089845099
0.452262014 0.469473988 0.094407603
0.485130012 0.478904009 0.101044998
0.517738998 0.487998992 0.107484996
0.550575972 0.496086001 0.113587998
0.582193017 0.503898978 0.119920999
0.612482011 0.510963976 0.126101002
0.640725970 0.518989980 0.133211002
0.667460024 0.527061999 0.140489995
0.692363024 0.536338985 0.148531005
0.715876997 0.545997977 0.156725004
0.738766015 0.555764019 0.166033000
0.760922015 0.566322982 0.175524995
0.780056000 0.575035989 0.184267998
0.799573004 0.583612025 0.193011001
0.819028020 0.592064977 0.201984003
0.839796007 0.599785984 0.210421994
0.861036003 0.606455028 0.217944995
0.882489979 0.613412976 0.226062000
0.034119200 0.362203002 0.035736602
0.054886699 0.364995986 0.036774199
0.075501598 0.368001997 0.037735600
0.097413599 0.370656997 0.038712099
0.122392997 0.374639988 0.039765000
0.154451996 0.379994988 0.041077301
0.182925001 0.391530991 0.043900199
0.212161005 0.406073004 0.048050702
0.241032004 0.426764011 0.054932501
0.270756006 0.446509987 0.062790900
0.302875996 0.467399001 0.072236203
0.339177996 0.479025990 0.080048800
0.373753995 0.487648010 0.086167701
0.404379010 0.491782993 0.090180799
0.432455987 0.497063011 0.094377004
0.461371988 0.502663016 0.099107303
0.494057000 0.510627985 0.105866998
0.526390016 0.518501997 0.112458996
0.558525980 0.526162028 0.119066000
0.589394987 0.533333004 0.125718996
0.618737996 0.540428996 0.132265002
0.646281004 0.547523975 0.139146999
0.672526002 0.554665029 0.145356998
0.697246015 0.563347995 0.153124005
0.720974028 0.572076023 0.160830006
0.743647993 0.581353009 0.169405997
0.764584005 0.590660989 0.178622007
0.783443987 0.598993003 0.187151998
0.803174019 0.607553005 0.195971996
0.822888970 0.616144001 0.205310002
0.843731999 0.623422980 0.213839993
0.865079999 0.630349994 0.222094998
0.886595011 0.637201011 0.230137005
0.035446700 0.398764014 0.037766099
0.056488901 0.401495010 0.038620599
0.077348001 0.404027998 0.039337799
0.099549897 0.406774998 0.040146500
0.128953993 0.409536988 0.040909398
0.160585999 0.414038002 0.041992798
0.189669997 0.423285007 0.044342700
0.218890995 0.436529994 0.048416901
0.248218998 0.456335992 0.055390202
0.277606994 0.477272004 0.064103097
0.309879988 0.499733001 0.075165898
0.346120000 0.514976978 0.084596001
0.380284995 0.523918986 0.091493100
0.411231011 0.528267026 0.096040301
0.439902008 0.532173991 0.099794000
0.469947010 0.536460996 0.104326002
0.502937019 0.542657018 0.110780001
0.535134017 0.549202979 0.117844999
0.566293001 0.555962026 0.124574997
0.596399009 0.562219024 0.131700993
0.625024974 0.568886995 0.138003007
0.651942015 0.575447977 0.144152001
0.677622974 0.581613004 0.150346994
0.701915026 0.589196980 0.157243997
0.725184977 0.596521020 0.164157003
0.747920990 0.605050981 0.172564000
0.766857028 0.612618983 0.180300996
0.785763025 0.620005012 0.187930003
0.805661023 0.628076971 0.196674004
0.825513005 0.636011004 0.205219001
0.846509993 0.643122017 0.213458002
0.867964029 0.649607003 0.221240997
0.889616013 0.656122983 0.229191005
0.036759000 0.434989005 0.039520901
0.058075801 0.437552005 0.040161699
0.079194300 0.439704001 0.040756799
0.104143001 0.441931993 0.041351900
0.136613995 0.444494992 0.041886002
0.168017000 0.448675990 0.042908400
0.197971001 0.455421001 0.044769999
0.227924004 0.468299001 0.049057800
0.257694006 0.485038996 0.055680200
0.287281990 0.507057011 0.065766402
0.319523990 0.529991984 0.077882104
0.354191989 0.548988998 0.089860402
0.387075990 0.558633029 0.097672999
0.417196989 0.564949989 0.103272997
0.445991009 0.567758024 0.106737003
0.477454990 0.570993006 0.111437000
0.510918021 0.575569987 0.117524996
0.543160021 0.580300987 0.123902999
0.574395001 0.585626006 0.130556002
0.603784025 0.590967000 0.137133002
0.631388009 0.596261978 0.143404007
0.657281995 0.601891994 0.149217993
0.682460010 0.607065022 0.155443996
0.706064999 0.613259971 0.161685005
0.728954017 0.619347990 0.167636007
0.749629974 0.626443982 0.174532995
0.768688023 0.633219004 0.181415007
0.787747025 0.639826000 0.188311994
0.807857990 0.647517025 0.196628004
0.827862978 0.654582024 0.204410002
0.848981023 0.661020994 0.212467000
0.870512009 0.666711986 0.220188007
0.892194986 0.672128975 0.227787003
0.038040701 0.469992995 0.040955201
0.059617002 0.472189993 0.041489299
