assets/Mood-Film-15.cube
TITLE "33x33x33 Adobe/IRIDAS cube 3D LUT exported with GrossGrade v0.2.2 (beta) 64 bit"
DOMAIN_MIN 0 0 0
DOMAIN_MAX 1 1 1
LUT_3D_SIZE 5
0.000244144 0.000122072 0.000106813
0.207812995 0.041062001 0.024582300
0.394598007 0.049454499 0.033646099
0.541343987 0.052628402 0.033066299
0.736537993 0.045990702 0.034027599
0.026489699 0.150270998 0.108888000
0.234561995 0.215457007 0.070984997
0.470878005 0.252644002 0.060456201
0.664515018 0.258121997 0.052781001
0.836973011 0.238193005 0.049118798
0.097093202 0.350133985 0.117082000
0.299717993 0.392369986 0.073212802
0.495292991 0.444388986 0.038315400
0.719753027 0.465736002 0.044647899
0.924162984 0.454582006 0.042160701
0.263065994 0.550209999 0.098024003
0.417715997 0.572717011 0.087159500
0.581108987 0.603097975 0.065262802
0.744198024 0.636148989 0.057694402
0.927474022 0.689387023 0.081818901
0.418570012 0.726679981 0.162890002
0.570077002 0.742183983 0.170976996
0.723827004 0.767589986 0.177919999
0.853924990 0.791440010 0.183963001
0.930555999 0.843320012 0.223971993
0.005737390 0.034226000 0.070756100
0.150362000 0.038162801 0.123567998
0.348134995 0.034592200 0.124727003
0.499184012 0.031845599 0.132097006
0.711314976 0.040238000 0.150927007
0.029602500 0.200259000 0.196154997
0.242221996 0.248783007 0.227542996
0.461234003 0.276264995 0.234592006
0.659586012 0.276248991 0.213030994
0.827359021 0.238743007 0.200731993
0.087281600 0.377050012 0.259312004
0.317631990 0.427390009 0.274250001
0.484398007 0.455740988 0.261189014
0.719645977 0.473776996 0.241595998
0.922941983 0.455374986 0.215746999
0.190326005 0.550392985 0.272830993
0.377905011 0.599206984 0.304935992
0.536827981 0.616464019 0.289799005
0.724636018 0.649653018 0.271519005
0.928404987 0.691371024 0.259128988
0.277866989 0.725704014 0.311466992
0.495902985 0.772198021 0.364340007
0.682138979 0.791851997 0.385610998
0.843702018 0.820370972 0.392630011
0.938521028 0.870298028 0.390004992
0.007736320 0.074708201 0.156893000
0.070984997 0.052018002 0.238482997
0.312139004 0.032608502 0.261204004
0.448370993 0.032837398 0.256107002
0.598199010 0.034210701 0.283924997
0.024475500 0.240269005 0.307134002
0.207308993 0.288578987 0.378546000
0.439581990 0.306217998 0.402411014
0.609643996 0.305577010 0.389517009
0.764935017 0.244159997 0.355352014
0.074586101 0.437552005 0.410407007
0.325596988 0.489937007 0.455664992
0.493202001 0.509284973 0.475181013
0.694559991 0.506187975 0.467857003
0.908293009 0.454353005 0.406805992
0.168124005 0.590081990 0.456809014
0.358633012 0.638894975 0.482811004
0.532127976 0.660075009 0.497002006
0.707439005 0.671244025 0.502937019
0.921797991 0.695627987 0.498436004
0.189471006 0.731227994 0.480094999
0.387181997 0.785412014 0.505500972
0.632791996 0.819576979 0.534798026
0.827252984 0.845929980 0.562080979
0.942794025 0.888257980 0.571237028
0.009552150 0.118897997 0.258213013
0.021133700 0.080216698 0.323612988
0.240954995 0.050034299 0.391622990
0.429618001 0.038330700 0.392111003
0.542259991 0.041062001 0.405416995
0.019485800 0.288715988 0.418235004
0.149706006 0.330648005 0.493613988
0.370916009 0.320928007 0.535423994
0.569558024 0.320836008 0.550530016
0.736995995 0.297261000 0.525429010
0.050736200 0.470542014 0.519416988
0.262486011 0.523980021 0.570915997
0.441870987 0.548424006 0.604973972
0.639185011 0.550209999 0.615594983
0.863035023 0.493797004 0.562645972
0.136095002 0.629862010 0.583733976
0.316152006 0.676432014 0.608927011
0.513741016 0.711588979 0.635797977
0.702265978 0.720499992 0.655481994
0.906126022 0.708262980 0.667689025
0.165774003 0.764508009 0.620339990
0.308171004 0.808529973 0.641351998
0.546181023 0.847715020 0.670359015
0.783612013 0.873166978 0.697275996
0.946745992 0.906126022 0.729975998
0.010360900 0.174028993 0.389333993
0.009735260 0.122025996 0.404318005
0.138230994 0.073991001 0.516182005
0.368963003 0.056931399 0.524726987
0.584131002 0.046234801 0.608407974
0.012970200 0.346578002 0.532096982
0.091691501 0.383596987 0.595131993
0.262744993 0.353246003 0.647836983
0.467094004 0.317036986 0.674052000
0.750438988 0.294849992 0.783474982
0.022934301 0.515908003 0.627878010
0.154070005 0.565652013 0.685130000
0.330799997 0.579828024 0.736370027
0.528252006 0.560066998 0.762448013
0.824033022 0.524726987 0.828213990
0.083634697 0.660121024 0.688609004
0.212787002 0.705837011 0.728908002
0.416175008 0.744305015 0.777019978
0.652734995 0.761349022 0.798443973
0.880765975 0.752407014 0.845257998
0.165804997 0.785961986 0.736155987
0.282032013 0.827633977 0.782925010
0.507897019 0.868619978 0.820538998
0.761027992 0.905043006 0.847288013
0.955260992 0.927793980 0.881848991
