assets/Mood-Film-02.cube
TITLE "33x33x33 Adobe/IRIDAS cube 3D LUT exported with GrossGrade v0.2.2 (beta) 64 bit"
DOMAIN_MIN 0 0 0
DOMAIN_MAX 1 1 1
LUT_3D_SIZE 5
0.021789899 0.022125600 0.024750100
0.174394995 0.024155000 0.026810100
0.402761996 0.026337100 0.025986100
0.624490976 0.028778501 0.028442800
0.833218992 0.031097900 0.031342000
0.026474399 0.151338995 0.029434700
0.196323007 0.186770007 0.039734501
0.427130997 0.242495999 0.046402700
0.656122983 0.281910002 0.067704298
0.838986993 0.321842998 0.100648999
0.032791600 0.325749993 0.033569898
0.234698996 0.395925999 0.053910099
0.485130012 0.478904009 0.101044998
0.715876997 0.545997977 0.156725004
0.882489979 0.613412976 0.226062000
0.068879202 0.580345988 0.044541098
0.318349004 0.598641992 0.067124397
0.540017009 0.695429981 0.148454994
0.737712979 0.699001014 0.183108002
0.900740027 0.724788010 0.212604001
0.145036995 0.763409019 0.070511900
0.376944005 0.763194978 0.069245398
0.560311019 0.848203003 0.169574007
0.752667010 0.830762029 0.189623997
0.909223974 0.840924978 0.216968000
0.022140799 0.022476500 0.117296003
0.180788994 0.024704400 0.144427001
0.423177987 0.027023699 0.152254999
0.646768987 0.029465200 0.145418003
0.840512991 0.031586200 0.140520006
0.026306599 0.137208998 0.123415001
0.227755994 0.220356002 0.202227995
0.465507001 0.249652997 0.217166007
0.683283985 0.287357986 0.232669994
0.853924990 0.319889992 0.238925993
0.033264700 0.328007996 0.139314994
0.255131006 0.387091011 0.202059999
0.530083001 0.513329029 0.301762015
0.732783973 0.586389005 0.328588009
0.899733007 0.644815981 0.389333993
0.088776998 0.575462997 0.189028993
0.339253992 0.588159025 0.233889997
0.577081025 0.698009014 0.319997013
0.768306971 0.710842013 0.352589995
0.907149017 0.776271999 0.419180989
0.164523005 0.759303987 0.237765998
0.389838010 0.760326982 0.252231985
0.624078989 0.801403999 0.271640986
0.778621972 0.826885998 0.335180014
0.939116001 0.839078009 0.387106001
0.022644401 0.022980100 0.248768002
0.167741999 0.024826400 0.315297008
0.407752007 0.027588300 0.348423988
0.645425975 0.030319700 0.376668990
0.845089972 0.032471199 0.363972992
0.026871100 0.137774006 0.273198009
0.177965999 0.197313994 0.363272011
0.454230994 0.264836013 0.420446992
0.700618029 0.306751996 0.440268993
0.871885002 0.342184007 0.456869990
0.033249401 0.310445011 0.309590012
0.269275993 0.408102989 0.397466987
0.505913019 0.531243026 0.496147007
0.732798994 0.561227024 0.500922978
0.889447987 0.611109018 0.546700001
0.130327001 0.561287999 0.376165003
0.374289006 0.625909984 0.436102986
0.567514002 0.681986988 0.479622006
0.764217973 0.763850987 0.559762001
0.914732993 0.822628975 0.582422018
0.199038997 0.755337000 0.410573989
0.411520988 0.771785975 0.435934991
0.636682987 0.778285980 0.437171012
0.808086991 0.872114003 0.623727977
0.954437017 0.906553984 0.674265981
0.023300501 0.023636200 0.421407998
0.213793993 0.025757199 0.428061008
0.396688998 0.028137600 0.527061999
0.638665974 0.030716401 0.502708018
0.823696971 0.033066299 0.587334991
0.028641200 0.169496998 0.443183005
0.202547997 0.189868003 0.463966012
0.453604996 0.284031004 0.584344029
0.701349974 0.330525994 0.564873993
0.861845016 0.354878992 0.603357017
0.034805801 0.332920998 0.510796010
0.266438007 0.405279994 0.560097992
0.504554987 0.507148981 0.635523021
0.743725002 0.573449016 0.685588002
0.892241001 0.608529985 0.706691027
0.163714007 0.552452981 0.551415026
0.365148008 0.613381982 0.596399009
0.572412014 0.707286000 0.675242007
0.764172018 0.781888008 0.742350996
0.912519991 0.809125006 0.770152986
0.214450002 0.749767005 0.573311985
0.424856991 0.779048979 0.611626983
0.619912982 0.824703991 0.665232003
0.794842005 0.911803007 0.752529025
0.938735008 0.948378980 0.814114988
0.023895601 0.024231300 0.580834985
0.214739993 0.026291300 0.570564985
0.397269011 0.028717499 0.681146979
0.637338996 0.031220000 0.639505982
0.839489996 0.040756799 0.627831995
0.029602500 0.182483003 0.574670017
0.228533998 0.191394001 0.565164030
0.448325008 0.266544998 0.679773986
0.681086004 0.358007014 0.652643979
0.852750003 0.385823995 0.641534984
0.048630498 0.362340987 0.679468989
0.288623989 0.417104989 0.648234010
0.503319025 0.496010005 0.696467996
0.745190024 0.579048991 0.758006990
0.908644021 0.630289018 0.773891985
0.167421997 0.571739972 0.705150008
0.362661004 0.602472007 0.713343978
0.587732017 0.687510014 0.769008994
0.776576996 0.769725978 0.859265983
0.922164023 0.803174019 0.892957985
0.202350006 0.747784019 0.739986002
0.410788000 0.776027977 0.766566992
0.619852006 0.826810002 0.814571977
0.804852009 0.907209992 0.890883029
0.952711999 0.954360008 0.939116001
