assets/Mood-Film-01.cube
TITLE "33x33x33 Adobe/IRIDAS cube 3D LUT exported with GrossGrade v0.2.2 (beta) 64 bit"
DOMAIN_MIN 0 0 0
DOMAIN_MAX 1 1 1
LUT_3D_SIZE 5
0.031616699 0.032166000 0.054779898
0.155717999 0.047898099 0.058548901
0.411718994 0.069657400 0.049744401
0.661982000 0.096482798 0.047806501
0.808041990 0.129060999 0.051102500
0.036560599 0.147691995 0.067978904
0.161868006 0.179095000 0.075410098
0.435995996 0.211658001 0.060746200
0.701259017 0.241046995 0.055008799
0.861006021 0.296422005 0.064255700
0.035019498 0.292165011 0.091477796
0.169756994 0.349752009 0.106645003
0.424048007 0.424856991 0.101442002
0.728160977 0.448157012 0.091172703
0.898465991 0.491600007 0.103761002
0.040726300 0.434866995 0.117174000
0.193712994 0.502556026 0.140414000
0.471015006 0.595772982 0.148257002
0.733790994 0.661005974 0.173297003
0.913954020 0.670741022 0.188631997
0.062455200 0.563134015 0.145098001
0.231708005 0.632807016 0.177004993
0.529731989 0.720942974 0.194018006
0.780407012 0.780956984 0.230671003
0.919767976 0.808438003 0.279011011
0.034195501 0.037659299 0.129976004
0.184130996 0.069169097 0.152116999
0.437705010 0.098283403 0.162065998
0.678721011 0.131394997 0.163896993
0.844281971 0.195804000 0.165148005
0.053070899 0.190723002 0.166323006
0.209491000 0.215777993 0.201739997
0.454124004 0.246768996 0.219638005
0.700937986 0.280124992 0.218418002
0.881361008 0.353033006 0.217989996
0.070832402 0.370092005 0.211673006
0.224277005 0.424109012 0.260212004
0.458747000 0.461524010 0.269122988
0.713298023 0.477057993 0.262470007
0.902296007 0.521691024 0.271762997
0.097093202 0.524788022 0.254642993
0.264468998 0.597818017 0.325230986
0.502189994 0.656229019 0.344045013
0.729731977 0.693324029 0.340077996
0.908370018 0.699809015 0.346592993
0.138903007 0.652688980 0.301319987
0.320623010 0.725475013 0.391135007
0.567178011 0.789273024 0.431495011
0.776271999 0.829281986 0.438804001
0.915389001 0.847348988 0.450980008
0.044052798 0.056992400 0.212847993
0.239124000 0.121462002 0.265370011
0.486319989 0.190234005 0.324070990
0.713222027 0.233889997 0.341253012
0.876173019 0.307835996 0.349447012
0.093064800 0.268330008 0.289112985
0.291263998 0.300983995 0.354986012
0.504158020 0.338018000 0.420767993
0.714228988 0.365469009 0.435721010
0.889845014 0.422354013 0.438941002
0.154208004 0.475151002 0.374166012
0.328877985 0.515541017 0.445273995
0.525551021 0.517754018 0.494545013
0.713252008 0.515479982 0.495276988
0.898694992 0.542885005 0.490471005
0.209598005 0.628518999 0.437568009
0.388906986 0.684397995 0.521996021
0.558647990 0.712580979 0.578499973
0.733852029 0.717936993 0.555824995
0.902327001 0.718181014 0.540840983
0.275151014 0.747569978 0.498450994
0.458395988 0.800076008 0.585533977
0.621362984 0.836987972 0.645075023
0.777127028 0.861234009 0.647607982
0.913954020 0.875531971 0.629266977
0.130799994 0.173357993 0.360769004
0.380391985 0.261494011 0.448814005
0.580941021 0.342503995 0.534614980
0.746547997 0.393835008 0.580803990
0.892180026 0.443899989 0.606545985
0.197725996 0.411947995 0.469534993
0.442191005 0.446249992 0.552421987
0.614831984 0.489295989 0.625086010
0.751949012 0.516593993 0.668299019
0.893629014 0.537545025 0.680369020
0.279103011 0.587761998 0.564965010
0.469368011 0.625422001 0.640864015
0.643091023 0.635065019 0.694759011
0.760586023 0.637995005 0.723246992
0.896619976 0.634317994 0.726894021
0.362982005 0.715160012 0.638513982
0.516640007 0.746868014 0.698848009
0.658258975 0.767758012 0.746348977
0.776409984 0.769511998 0.766139984
0.902128994 0.762539029 0.759730995
0.424291998 0.815945983 0.690257013
0.565530002 0.846432984 0.744427025
0.693567991 0.872770011 0.787594020
0.804958999 0.890851974 0.811109006
0.916181982 0.900267005 0.807812989
0.418204010 0.427145988 0.657846987
0.558923006 0.454519987 0.697001994
0.675135016 0.487830997 0.741665006
0.790524006 0.522895992 0.789089978
0.902785003 0.551827013 0.825223029
0.396735013 0.562097013 0.706905007
0.577142000 0.580040991 0.763698995
0.694926023 0.599924028 0.800701976
0.799404979 0.620661020 0.832822025
0.904645979 0.636515021 0.854870975
0.426032007 0.669947028 0.755092978
0.580376983 0.695353985 0.810590029
0.709452987 0.712001026 0.849348009
0.812023997 0.725428998 0.873929977
0.910642982 0.734965980 0.888121009
0.471121997 0.764568985 0.797787011
0.601693988 0.789943993 0.843457997
0.720561981 0.811307013 0.879835010
0.826291025 0.828716993 0.904738009
0.920623004 0.838742971 0.917266011
0.519432008 0.855588973 0.837338984
0.630396008 0.876249015 0.870236993
0.741329014 0.900267005 0.903441012
0.840664983 0.919905007 0.925750017
0.929961026 0.932112992 0.936568022
