assets/Mood-Film-12.cube
TITLE "33x33x33 Adobe/IRIDAS cube 3D LUT exported with GrossGrade v0.2.2 (beta) 64 bit"
DOMAIN_MIN 0 0 0
DOMAIN_MAX 1 1 1
LUT_3D_SIZE 33
0.024460200 0.026596500 0.034424402
0.026031900 0.026977999 0.034744799
0.028503900 0.027801899 0.035233099
0.041199401 0.029083701 0.036896300
0.062134702 0.030731700 0.038330700
0.087693602 0.032211799 0.039536100
0.113222003 0.033829302 0.040848400
0.141206995 0.035980798 0.041596100
0.169207007 0.038223900 0.043427199
0.197542995 0.042481098 0.047989599
0.227633998 0.045807600 0.052903000
0.258549005 0.049622301 0.058762498
0.290044010 0.052750401 0.063935302
0.320546001 0.056321099 0.068940297
0.350652009 0.061158199 0.075486399
0.381033003 0.065827399 0.082337700
0.414725006 0.071290202 0.090958998
0.449180007 0.076554500 0.099168397
0.485846996 0.081940897 0.107683003
0.521736979 0.087083198 0.116884001
0.556053996 0.091691501 0.124605000
0.590157986 0.096498102 0.132860005
0.624323010 0.101655997 0.140734002
0.664515018 0.107408002 0.149537995
0.705653012 0.113268003 0.158144996
0.751064003 0.119295001 0.167284995
0.794583023 0.124101996 0.176195994
0.819195986 0.126161993 0.183963001
0.841413021 0.127839997 0.191363007
0.854749024 0.127748996 0.198154002
0.864880979 0.127550006 0.203479007
0.864880979 0.127550006 0.203479007
0.864880979 0.127550006 0.203479007
0.025390999 0.028290199 0.036255401
0.026993200 0.028793801 0.036362201
0.029221000 0.029480400 0.036759000
0.043778099 0.030350201 0.037521899
0.066758201 0.031616699 0.038666401
0.093232602 0.033234101 0.039887100
0.120866999 0.035095800 0.040741600
0.153230995 0.037994999 0.041718200
0.185916007 0.043244101 0.045975398
0.219027996 0.048111700 0.051163498
0.251011014 0.051453400 0.058045302
0.282718986 0.054276299 0.063950598
0.312519997 0.057801198 0.070130497
0.341877997 0.061768498 0.076295100
0.370977014 0.066102102 0.083207399
0.402624995 0.070450902 0.090425000
0.434606999 0.075608499 0.097917102
0.468086004 0.080582902 0.105729997
0.501227975 0.084946997 0.113237001
0.534233987 0.089112699 0.120774999
0.567254007 0.093385197 0.128114998
0.601404011 0.098329097 0.136155993
0.637263000 0.103487000 0.144136995
0.677607000 0.109438002 0.152879998
0.719982028 0.115511000 0.161639005
0.765667021 0.121050000 0.170825005
0.802487016 0.124865003 0.179262996
0.826749027 0.126847997 0.186725006
0.845852971 0.128160998 0.193973005
0.859067976 0.127871007 0.200747997
0.865216970 0.127839997 0.203936994
0.865216970 0.127839997 0.203936994
0.865216970 0.127839997 0.203936994
0.026810100 0.030640099 0.038498498
0.028000301 0.031372599 0.038880002
0.029999200 0.031799801 0.038819000
0.049149301 0.032806899 0.038895201
0.080003098 0.035874002 0.039627701
0.110338002 0.039673500 0.039459798
0.142518997 0.045014098 0.040741600
0.174655005 0.049805399 0.044480000
0.206134006 0.053345501 0.051697601
0.237430006 0.057190798 0.058503099
0.268101007 0.060715601 0.065079696
0.298253000 0.065186501 0.072312497
0.326786995 0.068848699 0.078797601
0.354223013 0.072617702 0.085389502
0.380957007 0.075654201 0.091142103
0.410468012 0.078919701 0.097352602
0.440757006 0.082230903 0.103592999
0.473396003 0.086900100 0.111086003
0.506049991 0.090135001 0.117830001
0.538734972 0.094117597 0.124971002
0.571771026 0.097932398 0.131898999
0.605798006 0.101945996 0.139345005
0.642466009 0.106935002 0.147097006
0.682413995 0.112214997 0.155337006
0.725093007 0.118242003 0.163973004
0.771115005 0.124055997 0.173251003
0.805675983 0.127061993 0.181154996
0.829755008 0.128481001 0.188418001
0.847958982 0.130052999 0.195650995
0.861585021 0.131518006 0.202930003
0.866559982 0.132235005 0.205660999
0.866559982 0.132235005 0.205660999
0.866559982 0.132235005 0.205660999
0.033722401 0.051316101 0.049454499
0.037415098 0.057709601 0.052689400
0.045944899 0.063569099 0.055863298
0.066926099 0.066453002 0.057282399
0.096040301 0.070603497 0.055176601
0.121889003 0.076050997 0.049790200
0.151644006 0.082032502 0.049408700
0.182146996 0.086594902 0.051560201
0.211642995 0.089234799 0.058411501
0.240542993 0.090867497 0.066010498
0.267520994 0.091172703 0.072556697
0.293767005 0.090989500 0.078629702
0.319112003 0.091126896 0.084596001
0.344900012 0.091783002 0.090775900
0.371084005 0.092759602 0.096864298
0.399129987 0.093171597 0.102449000
0.428564996 0.093873501 0.107758999
0.460074991 0.096391201 0.114304997
0.492500007 0.098786898 0.120362997
0.524697006 0.101792999 0.126879007
0.557473004 0.105272003 0.133364007
0.590753019 0.107667997 0.139726996
0.624247015 0.110551998 0.145998001
0.663568974 0.114960998 0.153688997
0.703837991 0.119707003 0.161470994
0.749035001 0.126238003 0.170580998
0.794812024 0.131578997 0.179491997
0.818708003 0.131472006 0.185976997
0.841627002 0.131745994 0.192706004
0.856184006 0.136019006 0.200960994
0.868848979 0.140046999 0.208086997
0.868848979 0.140046999 0.208086997
0.868848979 0.140046999 0.208086997
0.056168500 0.099504098 0.076432399
0.063965797 0.106629997 0.081712097
0.075272799 0.112214997 0.086030401
0.093766697 0.113512002 0.085786201
0.117647000 0.115648001 0.081971496
0.137987003 0.120499998 0.083009101
0.163073003 0.123461001 0.081193298
0.186770007 0.124681003 0.077851497
0.212817997 0.124330997 0.075059101
0.239002004 0.124009997 0.073273800
0.265019000 0.123902999 0.076966502
0.290730000 0.122988001 0.081025399
0.315389007 0.122971997 0.087540999
0.340505004 0.122971997 0.094575398
0.366506010 0.123461001 0.102434002
0.393422991 0.123842001 0.110215999
0.423545003 0.124880001 0.118501998
0.454474986 0.126543000 0.126818001
0.487190008 0.128556997 0.135210007
0.519463003 0.130282000 0.141069993
0.551446021 0.132403001 0.146944001
0.583871007 0.133912995 0.152559996
0.617304027 0.135713995 0.158311993
0.654367983 0.138003007 0.164294004
0.694025993 0.140475005 0.170459002
0.737163007 0.145235002 0.177782997
0.783367991 0.150286004 0.185442999
0.815625012 0.152941003 0.192386001
0.839109004 0.154039994 0.198840007
0.855741024 0.157732993 0.206606999
0.868986011 0.162340999 0.215121999
0.872877002 0.163957998 0.217746004
0.872877002 0.163957998 0.217746004
0.086778097 0.144701004 0.108980000
0.095597804 0.150729001 0.113710001
0.105547003 0.154788002 0.117326997
0.124117002 0.153399006 0.116152003
0.140901998 0.153184995 0.116121002
0.154939994 0.153764993 0.113787003
0.173448995 0.153413996 0.107591003
0.193286002 0.153184995 0.100786000
0.219210997 0.153429002 0.093369998
0.245089993 0.153384000 0.086655997
0.270664990 0.152682006 0.085938796
0.296056002 0.152192995 0.086579703
0.320455015 0.151369005 0.091233701
0.344761997 0.150866002 0.096589603
0.370824993 0.150438994 0.103944004
0.397725999 0.150300995 0.111574002
0.427679986 0.150895998 0.119874999
0.458335012 0.151461005 0.127931997
0.490227014 0.152529001 0.136248007
0.522392988 0.154634997 0.144090995
0.553933024 0.157031000 0.151919007
0.586373985 0.160052001 0.159990996
0.620477974 0.162585005 0.167604998
0.657342970 0.165286005 0.175189003
0.697704017 0.168275997 0.182666004
0.741053998 0.173052996 0.190860003
0.786984026 0.177157000 0.197863996
0.819851995 0.180116996 0.204456002
0.842664003 0.182558998 0.211138994
0.859616995 0.185564995 0.218584999
0.871915996 0.189242005 0.226520002
0.876447976 0.190097004 0.229328007
0.876447976 0.190097004 0.229328007
0.117951997 0.182895005 0.135316998
0.124132000 0.186113998 0.137971997
0.129976004 0.187014997 0.138659000
0.145968005 0.184192002 0.136933997
0.162248999 0.182208002 0.133318007
0.175647005 0.182726994 0.131440997
0.191943005 0.184054002 0.129702002
0.208544999 0.184771001 0.127305999
0.229556993 0.183886006 0.121370003
0.251819998 0.183092996 0.115433998
0.276905000 0.182863995 0.109621003
0.302296013 0.182208002 0.103563003
0.326817989 0.182558998 0.103974998
0.351399988 0.182177007 0.105012998
0.377660990 0.181841999 0.109773003
0.404623002 0.181780994 0.115373001
0.434561998 0.182040006 0.122254997
0.465018988 0.182254001 0.129580006
0.496437013 0.183092996 0.137788996
0.527824998 0.185016006 0.146882996
0.558845997 0.187854007 0.156602994
0.591485023 0.190691993 0.166170999
0.625406027 0.194429994 0.176027998
0.663049996 0.198978007 0.185824007
0.704569995 0.203159004 0.195437998
0.748470008 0.208469003 0.204745993
0.793377995 0.212054998 0.211291999
0.825483024 0.215030000 0.218021005
0.847791016 0.218204007 0.225604996
0.863919973 0.221819997 0.234180003
0.875455976 0.225498006 0.243778005
0.880002975 0.226641998 0.247409999
0.880017996 0.226870999 0.247501001
0.142152995 0.213900998 0.154817998
0.147005007 0.216526002 0.156648993
0.151750997 0.217501998 0.157289997
0.168246001 0.214633003 0.155092999
0.184375003 0.212862998 0.153475001
0.197482005 0.213976994 0.154130995
0.211078003 0.215823993 0.155413002
0.224231005 0.215380996 0.152376994
0.240803003 0.213930994 0.147539005
0.259388000 0.212467000 0.142275006
0.283879012 0.212329000 0.131044000
0.308431000 0.212496996 0.121141002
0.332982004 0.213321000 0.118378997
0.357899994 0.213291004 0.115708999
0.384710014 0.214054003 0.118134998
0.412084997 0.213519007 0.120607004
0.441702992 0.213962004 0.125810996
0.471946001 0.214359000 0.131837994
0.502753973 0.214846998 0.139513001
0.533622980 0.216434002 0.148332998
0.564095020 0.217852995 0.157977000
0.596551001 0.220188007 0.167758003
0.630502999 0.222949997 0.177539006
0.668115973 0.226291001 0.187227994
0.709545016 0.230808005 0.196933001
0.753108978 0.235615000 0.206591994
0.796917975 0.241092995 0.216541007
0.829357982 0.246768996 0.227130994
0.850827992 0.251803994 0.238162994
0.866575003 0.257068992 0.250019014
0.878171980 0.261860013 0.261539996
0.882688999 0.262562007 0.264652014
0.882688999 0.262562007 0.264652014
0.166841999 0.243336007 0.169939995
0.171465993 0.245776996 0.171359003
0.176149994 0.246967003 0.171968997
0.190966994 0.243884996 0.170396999
0.206682995 0.242145002 0.169863001
0.219744995 0.242434993 0.169359997
0.231708005 0.242526993 0.167696998
0.244418994 0.243121997 0.166278005
0.259357989 0.243304998 0.164660007
0.274814993 0.242954001 0.161059007
0.293446004 0.242023006 0.155076995
0.313511997 0.241108000 0.149294004
0.338216007 0.241855994 0.142718002
0.363393992 0.242100000 0.135775000
0.391088992 0.242892995 0.133500993
0.419409007 0.244083002 0.132357001
0.449409008 0.244587004 0.134507999
0.479759008 0.245730996 0.138216004
0.510002017 0.246722996 0.144518003
0.540093005 0.248111993 0.152055994
0.570168972 0.249469995 0.160753995
0.602456987 0.251316011 0.170001000
0.636210024 0.253558993 0.179582998
0.673686028 0.256763995 0.189257994
0.715067983 0.260746002 0.198809996
0.757457972 0.265415013 0.208803996
0.801052988 0.270848006 0.219577000
0.832867980 0.276066005 0.230182007
0.853941023 0.280658990 0.240832999
0.869490027 0.285557002 0.251911014
0.880140007 0.289555013 0.263446987
0.884337008 0.291081011 0.268375993
0.884337008 0.291081011 0.268375993
0.191257000 0.272083998 0.183886006
0.195758000 0.274861008 0.185396999
0.199649006 0.275929004 0.185962006
0.212024003 0.272267014 0.184343994
0.227573007 0.269885987 0.183017001
0.241749004 0.270695001 0.183138996
0.253955990 0.272098988 0.183718994
0.266377002 0.273517996 0.184297994
0.278751999 0.274235010 0.184070006
0.290639013 0.272908002 0.181688994
0.304372013 0.270999998 0.178819999
0.321018994 0.270038992 0.175509006
0.344426990 0.269764006 0.164888993
0.369069993 0.270175993 0.155656993
0.397222996 0.271885008 0.150835007
0.425985992 0.273045003 0.146731004
0.456625998 0.275090009 0.147111997
0.486992002 0.276066005 0.148057997
0.516884029 0.277714014 0.152392000
0.546700001 0.279514998 0.158206001
0.576623023 0.280690014 0.165392995
0.608346999 0.282734007 0.173586994
0.642237008 0.284610987 0.182192996
0.679988027 0.287586987 0.191455007
0.720592022 0.291096002 0.200777993
0.762371004 0.295475990 0.211108997
0.804485977 0.300740004 0.221407995
0.835981011 0.305745006 0.232180998
0.856351972 0.309940994 0.242741004
0.871550024 0.314031005 0.253497988
0.881421983 0.318821996 0.266238987
0.885617971 0.320562005 0.271717012
0.885617971 0.320562005 0.271717012
0.216388002 0.300969005 0.197054997
0.220188007 0.303258002 0.198305994
0.223072007 0.304051012 0.198749006
0.234272003 0.300449997 0.197130993
0.249760002 0.298619002 0.196520999
0.263554007 0.299077004 0.197040007
0.275700003 0.300603002 0.197879001
0.286716998 0.300709993 0.197116002
0.297870994 0.300954014 0.196323007
0.309605986 0.301030010 0.195650995
0.322591007 0.301411003 0.195178002
0.336964995 0.299977005 0.190814003
0.354620010 0.298848003 0.185534000
0.374945015 0.298465997 0.180666998
0.402547985 0.299275011 0.173205003
0.431463987 0.300648987 0.166887999
0.462013006 0.302525014 0.163348004
0.492439002 0.304692000 0.161745995
0.522697985 0.306827992 0.163714007
0.552819014 0.308903992 0.167315006
0.582803011 0.311055005 0.172900006
0.614633024 0.313497007 0.179324001
0.648477972 0.315510988 0.186830997
0.686015010 0.319020003 0.195162997
0.726100981 0.322163999 0.203615993
0.766704977 0.326359987 0.213717997
0.807690978 0.331395000 0.223803997
0.838270009 0.335606992 0.234256998
0.858273983 0.339314997 0.244663000
0.872983992 0.343495995 0.255374998
0.882582009 0.347692013 0.268925011
0.886412024 0.349294007 0.274372011
0.886412024 0.349294007 0.274372011
0.240283996 0.329396993 0.210100994
0.244204998 0.332325995 0.211809993
0.246768996 0.332920998 0.212191999
0.256366998 0.329380989 0.210391000
0.270085007 0.326191992 0.209338993
0.283421010 0.326925009 0.209857002
0.295506001 0.327946991 0.210315004
0.307668000 0.329243988 0.210849002
0.319294989 0.330953002 0.211687997
0.331196994 0.332769006 0.212757006
0.342260003 0.331440985 0.211138994
0.353994012 0.329762995 0.209307998
0.367071003 0.328114986 0.207568005
0.384297997 0.327001005 0.203707993
0.409689009 0.327412993 0.195162997
0.436912000 0.328099012 0.187610000
0.466850013 0.330098003 0.181994006
0.497108012 0.332372010 0.178836003
0.527230024 0.335209996 0.178882003
0.557869971 0.337911010 0.180148005
0.588159025 0.340734005 0.183458999
0.620462000 0.343647987 0.188005999
0.654734015 0.346882999 0.193957001
0.691829026 0.350194991 0.200564995
0.731014013 0.353872001 0.208712995
0.770519972 0.358052999 0.217715994
0.810315013 0.362401992 0.227207005
0.839765012 0.366369009 0.237002999
0.859251022 0.370321006 0.246631995
0.873350024 0.374350011 0.258121997
0.882291973 0.377873987 0.271046013
0.886274993 0.379308999 0.276782990
0.886274993 0.379308999 0.276782990
0.264759004 0.358433992 0.224963993
0.268375993 0.361333996 0.226566002
0.270480990 0.362096995 0.227024004
0.278355002 0.358236015 0.225237995
0.291202992 0.355428010 0.224094003
0.303974986 0.355520010 0.224246994
0.316502988 0.356588006 0.225070998
0.328694999 0.358022004 0.225940004
0.339605004 0.358785003 0.226275995
0.350805014 0.358862013 0.225787997
0.362706989 0.359030008 0.225604996
0.375142992 0.359685987 0.225558996
0.388754010 0.359274000 0.224291995
0.404027998 0.358357996 0.220630005
0.421667993 0.356846988 0.216297001
0.443228990 0.356404990 0.211596996
0.471320987 0.357748002 0.204806998
0.500419974 0.359196991 0.199114993
0.530448973 0.361990005 0.196200997
0.560967028 0.364995986 0.194232002
0.591759980 0.368063003 0.194796994
0.624521017 0.371785998 0.197146997
0.659403026 0.375692010 0.201633006
0.696344972 0.379628986 0.206943005
0.735270977 0.384023994 0.214725003
0.774043977 0.388662994 0.222843006
0.811963022 0.393088013 0.231280997
0.840817988 0.397498012 0.240253001
0.859845996 0.401143998 0.249454007
0.873395979 0.404623002 0.261691988
0.882062972 0.408026010 0.274509996
0.885923982 0.409200996 0.280079007
0.885923982 0.409200996 0.280079007
0.287281990 0.387517989 0.240314007
0.290104985 0.389822006 0.241794005
0.292133987 0.390401989 0.242175996
0.299259990 0.386617988 0.240131006
0.311253995 0.383947998 0.239078000
0.323507011 0.384191990 0.239536002
0.335866004 0.385244995 0.240542993
0.349721998 0.386023015 0.240803003
0.361714989 0.387578994 0.241671994
0.373876989 0.388723999 0.242252007
0.386633009 0.390599996 0.243396997
0.398795009 0.390951008 0.243336007
0.410894990 0.389470994 0.241840005
0.423269987 0.387838989 0.240436003
0.436042011 0.385962009 0.238743007
0.453864008 0.384847999 0.233875006
0.478430986 0.385717988 0.227221996
0.504737973 0.386496007 0.221056998
0.533393979 0.388754010 0.216388002
0.562936008 0.391562015 0.212573007
0.594110012 0.395392001 0.211490005
0.626565993 0.399558008 0.211353004
0.661737978 0.403571010 0.213291004
0.698390007 0.408468992 0.217472002
0.737163007 0.413442999 0.223697007
0.775128007 0.418219000 0.230593994
0.812328994 0.423101991 0.238224000
0.840986013 0.427648991 0.246264994
0.859632015 0.431769013 0.255771995
0.872754991 0.435126007 0.267322987
0.881361008 0.438239008 0.279347003
0.885083973 0.439779997 0.284671992
0.885115027 0.439384013 0.284718007
0.309803993 0.416770011 0.256397009
0.312992990 0.419515997 0.257923007
0.315068007 0.420309991 0.258473009
0.320867002 0.415778011 0.256123006
0.331838012 0.413152993 0.255115986
0.343755007 0.413489014 0.255558014
0.357991993 0.414191008 0.256000996
0.371816993 0.414878011 0.256503999
0.383841008 0.416036993 0.257266998
0.395635992 0.417075008 0.258015007
0.407523006 0.417411000 0.257800996
0.419378996 0.417333990 0.257465005
0.432532012 0.418020993 0.257542014
0.445838004 0.418296009 0.257800996
0.458961010 0.417486995 0.255970001
0.473365009 0.416159004 0.253178000
0.489814997 0.414602995 0.250064999
0.510062993 0.414328009 0.246509001
0.536155999 0.416357994 0.240757003
0.564186990 0.418325990 0.234821007
0.595026016 0.421117991 0.229908004
0.627084970 0.424917996 0.226229995
0.662135005 0.429618001 0.225192994
0.698390007 0.434240997 0.227283001
0.737438023 0.439841002 0.232242003
0.775264978 0.445457011 0.238482997
0.811917007 0.451270014 0.245456994
0.840359986 0.456413001 0.252781004
0.858717024 0.461050987 0.263278991
0.871931016 0.464926988 0.274112999
0.880002975 0.468344986 0.285923988
0.883665025 0.469260991 0.291141987
0.883665025 0.469260991 0.291141987
0.332112998 0.446067005 0.272632986
0.334524006 0.447730005 0.273671001
0.336492002 0.448935986 0.274342000
0.341603994 0.444862008 0.272251010
0.352117002 0.441870987 0.271014988
0.364324003 0.441962004 0.271320999
0.378439009 0.442420006 0.271838993
0.392172009 0.443060994 0.272435009
0.404989988 0.443731993 0.272953004
0.418096989 0.444754988 0.273609996
0.430395991 0.446235001 0.274661988
0.443259001 0.448035002 0.276019990
0.456717998 0.449423999 0.277226001
0.468207985 0.448249012 0.276524007
0.479972988 0.447333008 0.276111990
0.491676003 0.445562989 0.275563002
0.503426015 0.443426996 0.274951994
0.519874990 0.442602992 0.269870996
0.541924000 0.443488002 0.263278991
0.566856980 0.444694012 0.257037997
0.595834017 0.447760999 0.251529992
0.626443982 0.450751990 0.246371999
0.660745978 0.455024004 0.243701994
0.696650982 0.459785014 0.243701994
0.735087991 0.465216994 0.246479005
0.773037016 0.471060991 0.249851003
0.809430003 0.478248000 0.255237997
0.837994993 0.483741999 0.262134999
0.857358992 0.489082009 0.271961987
0.870648980 0.493431002 0.282413989
0.878629982 0.496529013 0.293935001
0.882429004 0.498008996 0.298772007
0.882429004 0.498008996 0.298772007
0.353917986 0.474478990 0.288670003
0.356725007 0.476767987 0.290073991
0.358357996 0.477088988 0.290318012
0.363790005 0.473212987 0.288318992
0.374150991 0.470313996 0.286945999
0.385046005 0.469992995 0.287083000
0.398824990 0.470297992 0.287815988
0.413352013 0.470618993 0.288167000
0.427253008 0.471717000 0.288975000
0.440207988 0.472144991 0.289418012
0.451698005 0.473304003 0.290439993
0.463232994 0.474128008 0.291112006
0.474707991 0.474220008 0.291218013
0.486167997 0.474144012 0.291218013
0.498299003 0.474097997 0.291431993
0.510856986 0.474052012 0.291615009
0.522880971 0.472770005 0.288960010
0.536171019 0.471855015 0.286549002
0.551553011 0.470786989 0.283969998
0.571129978 0.470984995 0.280552000
0.596688986 0.473167002 0.275043994
0.624628007 0.475883007 0.269870996
0.658716977 0.479865998 0.264515013
0.693796992 0.483985990 0.260455996
0.732264996 0.489692986 0.260273010
0.769923985 0.495094001 0.260533005
0.806316972 0.501578987 0.264301986
0.835187018 0.508033991 0.271762997
0.855192006 0.514549017 0.281787992
0.868955016 0.519707024 0.292118996
0.876738012 0.523598015 0.303395003
0.880369008 0.525460005 0.308476001
0.880369008 0.525460005 0.308476001
0.376989007 0.502036989 0.304951996
0.379552990 0.504051030 0.306203008
0.381415009 0.504768014 0.306569010
0.385930985 0.501075983 0.304645985
0.395253986 0.498053998 0.303180993
0.405340999 0.497581005 0.303227007
0.419333011 0.497779995 0.303654999
0.433265001 0.497963011 0.304051012
0.447043985 0.498374999 0.304753006
0.460013986 0.498923987 0.305501014
0.471426994 0.499641001 0.305866987
0.482887000 0.500586987 0.306355000
0.494163007 0.501564026 0.306966007
0.506096005 0.502617002 0.307682991
0.518317997 0.503655016 0.308431000
0.529244006 0.502663016 0.308248013
0.540566027 0.501655996 0.308124989
0.551675022 0.500221014 0.308034003
0.563027024 0.498329014 0.307835996
0.579904020 0.497947991 0.303074986
0.601022005 0.499168009 0.297551006
0.625527978 0.501320004 0.292638004
0.657099009 0.504540026 0.286320001
0.690195978 0.508080006 0.281529009
0.727611005 0.513145983 0.279392987
0.765224993 0.518517017 0.277759999
0.801419020 0.525138974 0.279881001
0.831281006 0.531791985 0.285205990
0.852796018 0.538169980 0.292973012
0.866972029 0.544182003 0.302174002
0.874830008 0.549064994 0.312963009
0.878126025 0.551277995 0.318226993
0.878126025 0.551277995 0.318226993
0.399740994 0.528922975 0.319920987
0.402456999 0.531319022 0.321339995
0.404089004 0.532020986 0.321781993
0.407674998 0.527625978 0.319492996
0.416128993 0.524712026 0.318195999
0.425956011 0.523949027 0.318105012
0.438926011 0.523963988 0.318471014
0.452125013 0.523994982 0.318821996
0.465826988 0.524254024 0.319279999
0.478980988 0.524285018 0.319294989
0.490592986 0.525231004 0.319905013
0.501533985 0.525947988 0.320439011
0.511848986 0.526650012 0.321096003
0.522377014 0.526650012 0.321218014
0.533134997 0.526908994 0.321447015
0.544488013 0.527153015 0.321630001
0.555871010 0.527015984 0.321752012
0.567818999 0.526650012 0.321431011
0.580102026 0.525916994 0.319310009
0.594170988 0.524864972 0.316731989
0.609354019 0.524025023 0.315021992
0.629464984 0.525062978 0.312611997
0.656122983 0.528434992 0.308568001
0.685495973 0.531593978 0.305195987
0.722743988 0.536293983 0.299930990
0.759959996 0.541450977 0.295383990
0.796428978 0.547814012 0.295017987
0.827283025 0.553689003 0.297199994
0.850385010 0.560600996 0.303716004
0.865338981 0.567025006 0.312824994
0.872907996 0.572426975 0.324849010
0.876249015 0.574928999 0.330327004
0.876249015 0.574928999 0.330327004
0.421653003 0.555015981 0.334706992
0.424154997 0.557121992 0.335911989
0.425848991 0.557991982 0.336445987
0.429022998 0.553658009 0.334156990
0.436728001 0.550468981 0.332630992
0.445654988 0.549767017 0.332448006
0.457587987 0.549598992 0.332722992
0.469763994 0.549645007 0.332937002
0.483345002 0.549400985 0.333149999
0.496192992 0.549507976 0.333424985
0.507499993 0.549965978 0.333927989
0.518119991 0.550346971 0.334401011
0.528222024 0.550912023 0.334553987
0.538551986 0.551720023 0.334874004
0.549278975 0.552330971 0.335180014
0.560464025 0.553017020 0.335500002
0.572426975 0.553887010 0.335943013
0.583886027 0.553032994 0.335821003
0.595560014 0.551964998 0.335698009
0.607492030 0.551141024 0.335851014
0.619471014 0.549691021 0.336156011
0.637323976 0.550209999 0.332998008
0.659067988 0.552330971 0.330098003
0.684840024 0.554863989 0.326893985
0.718944013 0.559167027 0.320210993
0.754115999 0.563973010 0.315739989
0.790355980 0.570030987 0.314199001
0.822323978 0.576196015 0.315084010
0.847395003 0.583275974 0.319417000
0.863447011 0.589852989 0.326848000
0.871061027 0.595483005 0.338108987
0.874478996 0.598245025 0.343190998
0.874478996 0.598245025 0.343190998
0.443168014 0.580040991 0.348423988
0.445807993 0.582512975 0.349828005
