assets/Mood-Film-12.cube
TITLE "33x33x33 Adobe/IRIDAS cube 3D LUT exported with GrossGrade v0.2.2 (beta) 64 bit"
DOMAIN_MIN 0 0 0
DOMAIN_MAX 1 1 1
LUT_3D_SIZE 5
0.024460200 0.026596500 0.034424402
0.169207007 0.038223900 0.043427199
0.414725006 0.071290202 0.090958998
0.705653012 0.113268003 0.158144996
0.864880979 0.127550006 0.203479007
0.166841999 0.243336007 0.169939995
0.259357989 0.243304998 0.164660007
0.449409008 0.244587004 0.134507999
0.715067983 0.260746002 0.198809996
0.884337008 0.291081011 0.268375993
0.353917986 0.474478990 0.288670003
0.427253008 0.471717000 0.288975000
0.522880971 0.472770005 0.288960010
0.732264996 0.489692986 0.260273010
0.880369008 0.525460005 0.308476001
0.520317018 0.679392993 0.406042993
0.561837018 0.671885014 0.403403014
0.650781989 0.672190011 0.405019999
0.757915974 0.679637015 0.405997008
0.869490027 0.718868017 0.424369007
0.657069027 0.841794014 0.507728994
0.694499016 0.842953980 0.510155022
0.790310979 0.846890986 0.517327011
0.848950982 0.851025999 0.523155987
0.876874983 0.851926029 0.528176010
0.025055300 0.032944199 0.195590004
0.154909998 0.047302999 0.186633006
0.407918990 0.082062997 0.230655000
0.711817980 0.098939501 0.248935997
0.881666005 0.123673998 0.282994002
0.085252203 0.242466003 0.283223003
0.244938001 0.240085006 0.256702989
0.453193009 0.238224000 0.249011993
0.725139022 0.249698997 0.275867999
0.895735025 0.271259993 0.314289987
0.313634008 0.472586989 0.337926000
0.401876986 0.467581987 0.337255001
0.515618026 0.470358998 0.335377991
0.735454023 0.490303010 0.311711013
0.882933021 0.523353994 0.353184998
0.504051030 0.680247009 0.432485998
0.547585011 0.671793997 0.428961992
0.646143019 0.671137989 0.428808987
0.753688991 0.678705990 0.428137988
0.870848000 0.718195975 0.443275005
0.650156021 0.841687977 0.529320002
0.686914980 0.842817008 0.528999984
0.787671030 0.846830010 0.535790026
0.849148989 0.850903988 0.540871024
0.876767993 0.851804018 0.545708001
0.028961601 0.044098601 0.330617011
0.155656993 0.052307900 0.356923997
0.355459005 0.116898999 0.352407008
0.637826979 0.176912993 0.393317014
0.897306979 0.234957993 0.462561995
0.038803700 0.224628001 0.437263012
0.207736000 0.233555004 0.419485986
0.405034989 0.252903014 0.393941998
0.686686993 0.275090009 0.421804994
0.912871003 0.313970000 0.470375001
0.187076002 0.469184011 0.489784002
0.281406999 0.461050987 0.458761990
0.489035994 0.459906995 0.445791990
0.730892003 0.484793991 0.441244990
0.890196025 0.502219975 0.456625998
0.447517008 0.683466971 0.505195975
0.499702007 0.674830019 0.501883984
0.627756000 0.670085013 0.498634011
0.741008997 0.677272022 0.494239986
0.873319983 0.718195975 0.504601002
0.629510999 0.838971972 0.594873011
0.663950980 0.840116024 0.591545999
0.767787993 0.844694018 0.591714025
0.848859012 0.850233018 0.597024977
0.876249015 0.850874007 0.600183010
0.041214600 0.068162099 0.454032004
0.151812002 0.076844402 0.501945019
0.352438003 0.095567301 0.500937998
0.562126994 0.184496999 0.493903995
0.847669005 0.256397009 0.543191016
0.043656100 0.217258006 0.536994994
0.215808004 0.247333005 0.556710005
0.387059987 0.219668999 0.530632019
0.597878993 0.284137994 0.512656987
0.885251999 0.331411004 0.554893970
0.131944999 0.480780989 0.660333991
0.280308008 0.479149014 0.635935009
0.454291999 0.453772992 0.578225017
0.672434986 0.457037985 0.556756020
0.899580002 0.481833994 0.585884988
0.331472009 0.688700974 0.658869028
0.398505002 0.680293024 0.635325015
0.545204997 0.670114994 0.594017982
0.714199007 0.669458985 0.585533977
0.878431022 0.712001026 0.590326011
0.595543981 0.832913995 0.677057981
0.627084970 0.837338984 0.672403991
0.715389013 0.844465017 0.665750980
0.843702018 0.850705981 0.666299999
0.876569986 0.851453006 0.665521979
0.071229100 0.113619000 0.587854028
0.174211994 0.125077993 0.660090029
0.375799000 0.123140000 0.663752019
0.560967028 0.161928996 0.625375986
0.769573987 0.238253996 0.654398024
0.111559004 0.258502990 0.689876020
0.245410994 0.280155987 0.694621027
0.406576991 0.260441005 0.692789972
0.579782009 0.231662005 0.638177991
0.827054024 0.318242013 0.664973021
0.294178993 0.533486009 0.783123016
0.352849990 0.523765981 0.762066007
0.468910009 0.487953007 0.731136024
0.641276002 0.418981999 0.683650017
0.869153976 0.459129006 0.681299984
0.384160995 0.710551977 0.808758974
0.433661014 0.702082992 0.790524006
0.551415026 0.696238995 0.758938015
0.673654974 0.653864026 0.699564993
0.886853993 0.658427000 0.692575991
0.559303999 0.838177979 0.818050981
0.592675984 0.838681996 0.805005014
0.676738024 0.841992974 0.779277980
0.801099002 0.852398992 0.748623013
0.877515972 0.853543997 0.741587996
