assets/Mood-Film-15.cube
TITLE "33x33x33 Adobe/IRIDAS cube 3D LUT exported with GrossGrade v0.2.2 (beta) 64 bit"
DOMAIN_MIN 0 0 0
DOMAIN_MAX 1 1 1
LUT_3D_SIZE 33
0.000244144 0.000122072 0.000106813
0.013397400 0.005172810 0.003723200
0.033249401 0.010925500 0.006836040
0.056107402 0.016693400 0.009903100
0.083512597 0.021957699 0.012512400
0.112260997 0.027496800 0.015304800
0.144410998 0.032791600 0.018600700
0.176806003 0.037628699 0.021606799
0.207812995 0.041062001 0.024582300
0.238940999 0.043747600 0.027069500
0.265736014 0.045593999 0.029022699
0.292546004 0.046860501 0.030792700
0.315770000 0.047959100 0.031952400
0.337911010 0.048477899 0.032883201
0.357533991 0.048706800 0.033295199
0.376852006 0.049332399 0.033615600
0.394598007 0.049454499 0.033646099
0.411810011 0.049530800 0.033524100
0.429037988 0.050019100 0.033432499
0.446447998 0.050659999 0.033310398
0.463919997 0.051026199 0.033081599
0.481925994 0.051545002 0.032929000
0.500922978 0.051926501 0.032929000
0.520637989 0.052475799 0.032990001
0.541343987 0.052628402 0.033066299
0.563637972 0.052719899 0.033234101
0.586709023 0.052704699 0.033508800
0.611138999 0.052353699 0.033737700
0.636529982 0.051667001 0.033890299
0.662226021 0.050553098 0.034119200
0.687098980 0.049485002 0.034226000
0.712871015 0.048020098 0.034332801
0.736537993 0.045990702 0.034027599
0.009872590 0.016876500 0.016067799
0.022034001 0.023315800 0.020386100
0.036697902 0.029678799 0.023132700
0.058396298 0.035416201 0.024658600
0.085130103 0.040985700 0.025528301
0.113969997 0.046341699 0.026398100
0.146974996 0.051590800 0.027756199
0.179796994 0.056321099 0.029053200
0.211795002 0.060212102 0.030884299
0.243900001 0.063553803 0.032455899
0.271564990 0.065949500 0.033875000
0.299717993 0.067872100 0.035400901
0.323139995 0.069794796 0.036392801
0.346318990 0.070756100 0.037140500
0.366613001 0.071869999 0.037552498
0.386541992 0.072755001 0.037842400
0.404852003 0.073350102 0.037750799
0.422858000 0.074174099 0.037811901
0.440604001 0.074784502 0.037643999
0.458487988 0.075440601 0.037521899
0.476554990 0.075959399 0.037201501
0.495216012 0.076600298 0.037094701
0.514702022 0.077058099 0.037048899
0.534233987 0.076966502 0.036881100
0.555917025 0.077271700 0.036942098
0.578270972 0.077317499 0.037003100
0.601556003 0.077134401 0.037033599
0.625742018 0.076279797 0.037109900
0.650843024 0.075150698 0.037247300
0.674921989 0.073807903 0.037064198
0.699413002 0.072175197 0.036972601
0.722728014 0.070283100 0.036728501
0.745936990 0.067841597 0.036224902
0.013565300 0.034271799 0.031296302
0.027740899 0.042114899 0.035324600
0.040756799 0.049591798 0.038666401
0.062653497 0.055314001 0.039169900
0.087846197 0.060578302 0.038407002
0.117067002 0.066285200 0.037857600
0.150209993 0.071442701 0.037491400
0.184237003 0.077103801 0.037399899
0.217212006 0.081925698 0.038178101
0.250171989 0.086137198 0.038910501
0.279071987 0.089753598 0.039993901
0.308293015 0.092576496 0.041123100
0.332448006 0.094819598 0.041825000
0.356619000 0.096925303 0.042603198
0.377691001 0.098664798 0.042908400
0.398229986 0.099900797 0.043198299
0.417257994 0.100771002 0.043106701
0.435858995 0.101655997 0.042984702
0.454062998 0.102190003 0.042771000
0.472175002 0.102586001 0.042389601
0.490532011 0.102586001 0.041962299
0.509651005 0.103136003 0.041779201
0.529168010 0.103182003 0.041474000
0.549705982 0.103364997 0.041351900
0.571298003 0.103151001 0.041138299
0.593576014 0.102891997 0.041001000
0.616800010 0.101945996 0.040787399
0.640847981 0.101061001 0.040741600
0.665094972 0.099473603 0.040466901
0.688440979 0.097703502 0.040207502
0.712626994 0.095536701 0.039765000
0.733227015 0.092744298 0.039017301
0.755672991 0.089921400 0.038483299
0.016098300 0.051361900 0.045120899
0.029709300 0.060227402 0.048905201
0.043915499 0.068268903 0.051911201
0.066163100 0.075013399 0.051911201
0.090104498 0.081620499 0.050766800
0.119874999 0.087357901 0.049012002
0.153307006 0.092896901 0.046799399
0.187181994 0.098298602 0.045227699
0.220919997 0.103517003 0.044739500
0.254673004 0.108415000 0.044480000
0.284855008 0.112657003 0.045136198
0.314916015 0.115923002 0.045807600
0.340200007 0.119142003 0.046555299
0.365651995 0.121583998 0.047226701
0.387198001 0.123673998 0.047562402
0.408773988 0.125443995 0.047837000
0.428045988 0.126069993 0.047760699
0.447439998 0.127092004 0.047364000
0.466102004 0.127443001 0.047043599
0.484474003 0.127564996 0.046570498
0.503929019 0.128298000 0.046158500
0.523231983 0.128359005 0.045685500
0.542855024 0.127855003 0.045212500
0.563943028 0.127885997 0.044846300
0.585991979 0.127581000 0.044419002
0.608071983 0.126818001 0.044129100
0.631693006 0.125750005 0.043686599
0.655786991 0.124421999 0.043305099
0.678812981 0.122454002 0.042923599
0.701777995 0.120026998 0.042328499
0.723720014 0.117478997 0.041657101
0.742702007 0.113587998 0.040924702
0.764537990 0.110811003 0.040116001
0.017944600 0.068757199 0.058594599
0.030304400 0.078431398 0.062256798
0.045929700 0.087327398 0.064393103
0.068375699 0.095292598 0.063660599
0.092317097 0.103136003 0.062104199
0.123536997 0.108704999 0.059174500
0.157000005 0.114243999 0.055374999
0.191043004 0.119631000 0.052643601
0.225604996 0.125413999 0.051117700
0.259555995 0.130831003 0.050171699
0.290760994 0.135195002 0.050110601
0.321599007 0.139909998 0.050339501
0.347860008 0.143022999 0.050919399
0.373907000 0.146165997 0.051514499
0.396277010 0.148332998 0.051758599
0.418646991 0.150133997 0.051972199
0.438773006 0.151492000 0.051712800
0.458824009 0.152499005 0.051499199
0.478125989 0.153016999 0.051056702
0.497397989 0.153490007 0.050476801
0.517327011 0.153825998 0.049942799
0.537087023 0.153825998 0.049393501
0.557595015 0.153764993 0.048828900
0.579400003 0.153810993 0.048325300
0.601876974 0.153399006 0.047745500
0.624826014 0.152604997 0.047135100
0.649119020 0.151904002 0.046570498
0.673822999 0.150866002 0.045990702
0.696573973 0.148577005 0.045319300
0.720149994 0.146181002 0.044617400
0.739665985 0.142901003 0.044205401
0.758235991 0.138720006 0.043320399
0.778881013 0.134920001 0.042511601
0.019882500 0.087708898 0.071976803
0.030975800 0.097764596 0.075165898
0.047272500 0.107210003 0.076325603
0.068864003 0.115419000 0.074692897
0.092118703 0.123338997 0.072342999
0.125017002 0.129411995 0.067765303
0.158739999 0.136233002 0.063141800
0.192844003 0.142106995 0.059891701
0.227679998 0.147890002 0.057099301
0.261997014 0.153184995 0.054978300
0.294102013 0.158281997 0.054123800
0.325428993 0.163148999 0.053849101
0.352910995 0.167101994 0.054306898
0.379842997 0.170809001 0.054963000
0.403326005 0.173175007 0.055298701
0.426993012 0.175586000 0.055710699
0.448233992 0.177172005 0.055649702
0.469458997 0.178622007 0.055558100
0.489585996 0.179187000 0.055146102
0.509850025 0.179736003 0.054596800
0.530418992 0.180285007 0.053986400
0.550866008 0.180483997 0.053208198
0.572472990 0.180362001 0.052506302
0.594658971 0.180087000 0.051667001
0.617745996 0.179995000 0.050965101
0.641427994 0.178957999 0.050186899
0.666589975 0.178453997 0.049454499
0.690669000 0.177127004 0.048737299
0.714610994 0.175203994 0.047989599
0.737757981 0.172685996 0.047211401
0.754849017 0.168001994 0.046540000
0.772946000 0.163577005 0.045914400
0.791652977 0.158755004 0.044907302
0.021591499 0.107148997 0.085175902
0.031693000 0.117723003 0.087968297
0.047394499 0.127336994 0.087983496
0.067170203 0.135775000 0.085587896
0.091752499 0.143953994 0.082535997
0.126146004 0.151246995 0.077103801
0.160707995 0.159152001 0.070801899
0.195238993 0.164766997 0.066544600
0.230655000 0.170809001 0.062714599
0.264881015 0.175830007 0.059677999
0.298054010 0.181429997 0.058213200
0.329412013 0.186862007 0.057465501
0.358099014 0.191073000 0.057572301
0.386007011 0.195285007 0.057816401
0.410605013 0.198154002 0.058228400
0.435065001 0.200655997 0.058503099
0.457327992 0.202121004 0.058442101
0.479636997 0.203890994 0.058350500
0.500586987 0.204685003 0.057816401
0.521934986 0.205645993 0.057190798
0.543129981 0.205965996 0.056321099
0.564431012 0.206226006 0.055390202
0.587243021 0.206348002 0.054444201
0.609857023 0.206134006 0.053345501
0.633813977 0.205951005 0.052368999
0.658473015 0.205325007 0.051224500
0.684091985 0.204699993 0.050186899
0.707713008 0.202822998 0.049362902
0.732158005 0.201006994 0.048355799
0.753292024 0.198183998 0.047837000
0.770717978 0.193835005 0.047623400
0.788341999 0.189288005 0.047257200
0.806577027 0.184496999 0.046753600
0.023773599 0.128130004 0.097215198
0.033569898 0.139177993 0.099092104
0.049332399 0.148745000 0.097825602
0.068146802 0.157214001 0.094605900
0.094087102 0.165087000 0.090470701
0.128053993 0.172365993 0.084290802
0.161211997 0.179308996 0.077149600
0.196353003 0.185550004 0.071763203
0.232669994 0.192690998 0.066910803
0.266315997 0.198657006 0.063706398
0.299701989 0.204425007 0.061295498
0.330846012 0.209644005 0.059540700
0.360448986 0.214251995 0.059144001
0.388967991 0.219013005 0.059098199
0.415044993 0.222415999 0.059464399
0.440604001 0.225466996 0.059876401
0.464073002 0.227436006 0.059922200
0.487677991 0.229099005 0.060044300
0.509757996 0.230167001 0.059739102
0.532585979 0.231479004 0.059144001
0.554665029 0.231693000 0.058258899
0.577157021 0.232212007 0.057297599
0.600930989 0.232714996 0.056183700
0.624185979 0.232272997 0.054871399
0.649133980 0.231951997 0.053528599
0.674449027 0.231723994 0.052246898
0.700343013 0.230808005 0.050843101
0.724436998 0.229236007 0.049942799
0.749339998 0.227084994 0.048889901
0.768444002 0.224124998 0.048752598
0.786450028 0.219927996 0.049057800
0.803768992 0.215868995 0.048661001
0.821835995 0.211337000 0.048401602
0.026489699 0.150270998 0.108888000
0.036301199 0.161151007 0.109545000
0.052048501 0.170642003 0.106996000
0.070069402 0.178607002 0.102784999
0.095902897 0.186434999 0.097657703
0.128267005 0.193041995 0.090638600
0.160693005 0.199846998 0.083405800
0.197176993 0.207491994 0.077286899
0.234561995 0.215457007 0.070984997
0.267735004 0.221607000 0.067673802
0.301106006 0.227344006 0.064179398
0.332951993 0.232852995 0.061692201
0.363362998 0.238315001 0.060776699
0.392293990 0.243121997 0.060212102
0.419562012 0.247073993 0.060303699
0.446173996 0.250340015 0.060379900
0.470878005 0.252644002 0.060456201
0.495719999 0.254978001 0.060349401
0.519096971 0.256107002 0.059861101
0.542946994 0.257144988 0.059357598
0.566186011 0.257815987 0.058365799
0.589959979 0.258320004 0.057328101
0.614099026 0.258244008 0.055756502
0.638697028 0.258700997 0.054184798
0.664515018 0.258121997 0.052781001
0.690439999 0.257571995 0.051194001
0.716364980 0.256413013 0.049774900
0.740993023 0.255115986 0.048813600
0.766110003 0.253192991 0.047775999
0.783565998 0.249851003 0.048081201
0.802044988 0.245853007 0.048645802
0.818708003 0.241900995 0.049057800
0.836973011 0.238193005 0.049118798
0.030716401 0.172747001 0.118043996
0.041092500 0.183978006 0.117311001
0.056763601 0.192995995 0.113191001
0.075104900 0.200763002 0.108094998
0.101930000 0.208178997 0.101869002
0.133120000 0.214511007 0.094377004
0.165346995 0.220584005 0.086945899
0.201098993 0.227741003 0.080415003
0.236987993 0.235324994 0.073716298
0.269717991 0.242617995 0.069977902
0.303624004 0.249698997 0.065735899
0.334524006 0.256092012 0.062851898
0.364553005 0.261601001 0.060853001
0.393698007 0.266651005 0.059296601
0.421606988 0.270938993 0.058625199
0.449072987 0.274722993 0.058442101
0.475333989 0.277530998 0.058320001
0.501244009 0.279698014 0.058518399
0.526145995 0.281361014 0.058152098
0.551110029 0.282689005 0.057648599
0.575555027 0.283421010 0.056778800
0.600748003 0.284153014 0.055634402
0.626107991 0.284550011 0.054200001
0.651666999 0.284503996 0.052567299
0.678416014 0.284047008 0.050843101
0.705256999 0.283757001 0.049164601
0.731257975 0.282673001 0.047791298
0.756725013 0.281224012 0.046601102
0.780209005 0.278766990 0.046219599
0.797940016 0.275256991 0.046799399
0.816434026 0.271717012 0.047516599
0.833294988 0.268330008 0.048432101
0.851347029 0.265094995 0.049073000
0.035080500 0.196505994 0.125672996
0.046662100 0.207720995 0.123383999
0.062729798 0.216006994 0.118043996
0.082230903 0.223620996 0.112199999
0.108903997 0.230182007 0.105118997
0.139146999 0.236072004 0.097230501
0.170413002 0.241809994 0.089982502
0.203922004 0.248523995 0.082978599
0.237415001 0.255634010 0.076325603
0.270969987 0.264225006 0.072129399
0.305669010 0.272861987 0.066971801
0.335743994 0.279132992 0.063813202
0.365987986 0.284916013 0.060883500
0.395101994 0.290165991 0.058426801
0.424093992 0.295399010 0.057129800
0.452246994 0.299167991 0.056671999
0.479712993 0.302525014 0.056275301
0.506660998 0.305409014 0.056137901
0.532616019 0.306888998 0.055924300
0.558800995 0.308521986 0.055588599
0.584191978 0.309361011 0.054947700
0.610665977 0.310184985 0.053955901
0.637003005 0.310597003 0.052552100
0.663736999 0.310535997 0.051224500
0.691142023 0.310231000 0.049378201
0.718715012 0.309772998 0.047730200
0.745006979 0.308658987 0.046479002
0.771206021 0.307377994 0.045441400
0.793164015 0.304295003 0.045105699
0.811977983 0.301349998 0.045777101
0.830426991 0.297719002 0.046540000
0.846997976 0.294346988 0.047516599
0.865369976 0.291981012 0.048126999
0.041397698 0.220844001 0.130343005
0.055024002 0.231708005 0.126389995
0.072251499 0.239261001 0.119997002
0.092698596 0.246571004 0.113191001
0.118853003 0.253253996 0.105516002
0.148699000 0.258518010 0.097703502
0.179828003 0.263904989 0.090577602
0.211779997 0.270146012 0.083955102
0.244007006 0.277089000 0.077531099
0.276080996 0.285512000 0.073105998
0.309285015 0.293567985 0.067399099
0.338918000 0.300846994 0.063904800
0.369206995 0.308385015 0.059677999
0.397345006 0.313924015 0.056534700
0.425666004 0.319187999 0.054352600
0.453619987 0.323415011 0.052841999
0.481436998 0.327077001 0.051743299
0.509010017 0.330114007 0.051682301
0.536126018 0.332235008 0.051468700
0.563241005 0.333927989 0.051682301
0.590004981 0.335119009 0.051422901
0.617516994 0.335927010 0.051255099
0.644632995 0.336553007 0.050217401
0.672388971 0.336430997 0.049408700
0.700785995 0.336201996 0.048126999
0.729259014 0.336080015 0.046692599
0.755824983 0.334751993 0.045578700
0.782634974 0.333241999 0.044480000
0.804745972 0.330419004 0.044235900
0.824276984 0.326893985 0.044373199
0.843153000 0.323751003 0.044678401
0.860409975 0.320699006 0.045258299
0.878278971 0.318410009 0.046295900
0.048630498 0.245579004 0.132844999
0.063706398 0.256381989 0.127107993
0.083650000 0.263675988 0.119905002
0.104601003 0.270801991 0.112474002
0.130982995 0.276203990 0.104783997
0.160799995 0.281192988 0.097428903
0.190738007 0.286229014 0.090775900
0.220768005 0.291676015 0.084504500
0.251132995 0.298527986 0.078385599
0.280674011 0.306706011 0.073487498
0.311603993 0.314411998 0.067368597
0.341161013 0.323307991 0.063370697
0.371542007 0.331975013 0.058167402
0.399329007 0.337758005 0.054749399
0.426901996 0.343327999 0.051621299
0.454917014 0.347584993 0.049073000
0.483298987 0.352041006 0.047104601
0.511466980 0.355168998 0.047074098
0.539590001 0.357809007 0.046921499
0.568063021 0.359762013 0.047608100
0.595972002 0.361211985 0.048081201
0.624216020 0.362264007 0.048310101
0.652323008 0.362340987 0.048020098
0.680994987 0.362691998 0.047699701
0.709986985 0.362432003 0.046891000
0.738689005 0.362127006 0.045899101
0.766322970 0.360754013 0.044907302
0.793805003 0.359364986 0.043930698
0.815578997 0.356267989 0.043549199
0.836392999 0.353123993 0.043274600
0.854993999 0.349691004 0.043350901
0.872723997 0.346547991 0.043518700
0.890470982 0.345005989 0.044327501
0.057389200 0.271396995 0.132203996
0.076188304 0.281269997 0.125276998
0.097612001 0.288121015 0.117371999
0.119080998 0.294286013 0.109788999
0.147294998 0.299138010 0.102799997
0.176532000 0.304509014 0.095780902
0.204394996 0.309361011 0.089494199
0.232685000 0.314976990 0.083665200
0.261341006 0.321691006 0.077744700
0.289525002 0.328938991 0.072999202
0.318334013 0.336201996 0.066773497
0.346882999 0.344915003 0.062439900
0.375997990 0.353215992 0.056397300
0.403737992 0.360174000 0.052521601
0.431387991 0.366537005 0.048371099
0.458487988 0.371344000 0.045380302
0.485511988 0.375661999 0.043656100
0.513054013 0.378912002 0.043442398
0.540886998 0.382147014 0.043106701
0.568933010 0.384526998 0.044235900
0.597146988 0.386251986 0.045273501
0.626078010 0.387930006 0.046021201
0.654917002 0.388464004 0.046356902
0.684337020 0.388617009 0.046738401
0.714092016 0.388464004 0.046265401
0.743358016 0.388006002 0.045944899
0.771709979 0.386754990 0.045288801
0.800258994 0.385870010 0.044449501
0.822354019 0.382589012 0.043991800
0.844617009 0.379446000 0.043488201
0.863874018 0.376120001 0.043106701
0.882597029 0.373037010 0.042709999
0.900771022 0.371908009 0.043060999
0.068116300 0.296880007 0.129488006
0.090974301 0.307103008 0.121187001
0.112032004 0.313100010 0.113297999
0.137087002 0.319050997 0.106095999
0.164691001 0.323888004 0.099702403
0.192126006 0.328283012 0.093537800
0.219104007 0.333348989 0.087953001
0.246159002 0.338811010 0.082154602
0.272801012 0.344960988 0.076966502
0.299183995 0.351354003 0.071732700
0.326222986 0.358433992 0.065918997
0.352513999 0.366201013 0.061097100
0.379446000 0.374197006 0.054932501
0.406423986 0.382086009 0.051270299
0.434287012 0.390264988 0.046707898
0.460364997 0.394995004 0.043549199
0.486411989 0.399176002 0.041504499
0.513710022 0.402853012 0.040512700
0.541436017 0.406850994 0.039673500
0.569741011 0.409750998 0.041092500
0.598488986 0.411749005 0.042374302
0.627878010 0.413381994 0.043869700
0.657693982 0.414465994 0.044831000
0.687739015 0.414465994 0.045655001
0.718089998 0.414236993 0.045868602
0.748012006 0.414068997 0.045822799
0.777279019 0.413213998 0.045502398
0.805797994 0.411917001 0.045151401
0.829312980 0.408515006 0.044296902
0.852872014 0.405478001 0.043564498
0.872968972 0.402792007 0.042618401
0.892759979 0.399619013 0.041702900
0.910673976 0.398856014 0.041916501
0.081605203 0.323597997 0.123948999
0.106385998 0.332783997 0.115679003
0.130877003 0.338185996 0.108644001
0.156618997 0.343327999 0.102296002
0.183932006 0.348439991 0.096589603
0.210238993 0.352651000 0.091233701
0.236087993 0.357427001 0.086106703
0.261494011 0.362493008 0.080781303
0.286000013 0.368245989 0.075852603
0.311040014 0.374655008 0.069871098
0.335958004 0.381323010 0.064423598
0.360998005 0.388556004 0.059296601
0.386251986 0.395682007 0.054001700
0.412238002 0.403418005 0.050370000
0.438986987 0.411047995 0.045182001
0.464942008 0.416433990 0.041550301
0.491218001 0.421957999 0.038803700
0.517983019 0.426322013 0.036987901
0.544426978 0.430137008 0.036331698
0.571663976 0.432974994 0.038254399
0.599695027 0.435842991 0.039688699
0.628778994 0.437765986 0.041626599
0.658578992 0.438804001 0.043182999
0.688731015 0.440084994 0.044525798
0.719233990 0.440145999 0.045120899
0.749598980 0.440115988 0.045685500
0.779217005 0.439307004 0.045502398
0.808484018 0.438116997 0.045426100
0.832776010 0.434760004 0.044724200
0.857221007 0.432242006 0.044159599
0.877835989 0.429556996 0.043366101
0.898679972 0.427008003 0.042572699
0.917448997 0.426764011 0.042175900
0.097093202 0.350133985 0.117082000
0.126192003 0.358190000 0.110201001
0.152453005 0.363606989 0.104143001
0.177904993 0.368490010 0.098130800
0.203281000 0.373006999 0.093095303
0.228472993 0.377294987 0.088120803
0.252689004 0.382254004 0.083009101
0.276203990 0.387106001 0.078370303
0.299717993 0.392369986 0.073212802
0.323186010 0.398214996 0.067917898
0.346531987 0.404226989 0.063111298
0.370229989 0.410757989 0.058030099
0.394003004 0.417365015 0.053223498
0.418646991 0.424261987 0.049073000
0.443426996 0.431174010 0.043839201
0.469336987 0.437658995 0.040756799
0.495292991 0.444388986 0.038315400
0.520424008 0.448859006 0.036728501
0.545647025 0.452369004 0.036041800
0.572259009 0.455879003 0.037277799
0.599709988 0.459830999 0.038071301
0.628672004 0.461829990 0.040176999
0.658075988 0.463981003 0.041962299
0.688669980 0.465034008 0.043656100
0.719753027 0.465736002 0.044647899
0.750850976 0.465705007 0.045532901
0.781185985 0.465063989 0.045624498
0.810666025 0.464011997 0.045792300
0.836103022 0.461371988 0.045258299
0.861294985 0.458961010 0.044861499
0.883009017 0.456458002 0.044113800
0.904891014 0.454443991 0.043152500
0.924162984 0.454582006 0.042160701
0.115221001 0.376576990 0.110322997
0.147386998 0.384099990 0.104630999
0.172793001 0.388951987 0.099153101
0.197711006 0.393500000 0.094041400
0.222293004 0.397985995 0.089631498
0.246159002 0.402135998 0.084977500
0.269230008 0.406760007 0.080750696
0.291920006 0.411307007 0.076325603
0.314289987 0.416312009 0.071427502
0.336416006 0.421622008 0.066758201
0.358740002 0.427298009 0.062150002
0.381276995 0.433447987 0.057526499
0.404119998 0.439231008 0.053406600
0.427664995 0.445472002 0.048767801
0.451346993 0.451941997 0.044495299
0.476143003 0.458182991 0.041748699
0.501121998 0.464529991 0.038468000
0.526023984 0.469260991 0.036270700
0.550850987 0.473930001 0.035400901
0.576866984 0.478065014 0.035751902
0.602945030 0.482169986 0.035996001
0.630990982 0.485100001 0.038116999
0.659586012 0.487358004 0.040329602
0.689570010 0.489250004 0.042099599
0.720317006 0.490455002 0.043625500
0.751293004 0.490821987 0.044632599
0.782115996 0.490348995 0.045288801
0.811855972 0.489647001 0.045731299
0.838177979 0.487526000 0.045426100
0.863812983 0.485466003 0.045197200
0.886412024 0.483543009 0.044373199
0.908506989 0.481925994 0.043732401
0.927932024 0.482490003 0.042877901
0.137162998 0.403189003 0.103928998
0.169512004 0.410299987 0.099381998
0.194170997 0.414526999 0.094819598
0.218692005 0.419333011 0.090409704
0.241703004 0.422812015 0.086427100
0.264697999 0.427008003 0.082597099
0.286229014 0.430961013 0.078965403
0.307805002 0.435400993 0.074586101
0.328770995 0.439978987 0.070450902
0.349920005 0.444754988 0.066254698
0.371252000 0.449896991 0.061905898
0.392751992 0.455511987 0.057801198
0.414801002 0.461311013 0.053574398
0.437400013 0.466711998 0.049378201
0.459861010 0.472099006 0.045624498
0.483314008 0.478096008 0.042572699
0.507026970 0.483909011 0.038330700
0.531762004 0.489784002 0.035828199
0.556329012 0.495216012 0.035446700
0.581139982 0.499657005 0.035782401
0.605692029 0.503760993 0.036362201
0.632623971 0.507088006 0.038040701
0.660211980 0.510703981 0.039337799
0.689647019 0.512885988 0.041077301
0.720165014 0.514855027 0.042633701
0.750988007 0.515648007 0.044007000
0.782238007 0.515648007 0.045029402
0.812466979 0.515052974 0.045548201
0.839627981 0.513741016 0.045624498
0.865918994 0.511924982 0.045410801
0.889219999 0.510155022 0.044907302
0.911818027 0.509316027 0.044388499
0.931761980 0.510596991 0.043396700
0.159609005 0.429556996 0.098847903
0.191440001 0.435705990 0.095933497
0.215075999 0.439673007 0.091981404
0.238299996 0.443533987 0.087998800
0.259876013 0.446844995 0.084763899
0.281879991 0.450567991 0.081406899
0.302540988 0.454688013 0.077836297
0.323125005 0.458716989 0.074051999
0.343113989 0.462776005 0.070740797
0.363806009 0.467765003 0.066544600
0.384389997 0.472557008 0.062684096
0.405371010 0.477667987 0.058960900
0.426963001 0.483040005 0.054810401
0.448875010 0.488166988 0.051224500
0.471168011 0.493187010 0.047959100
0.494132996 0.498374999 0.044007000
0.516945004 0.503731012 0.040604301
0.540504992 0.509087026 0.038971499
0.564064980 0.514473021 0.037567701
0.587761998 0.519141972 0.036743701
0.612191975 0.523963988 0.036774199
0.637842000 0.527962029 0.037369300
0.664088011 0.532020986 0.037506700
0.692393005 0.534538984 0.039536100
0.721813023 0.537316024 0.041199401
0.752086997 0.538887978 0.042832099
0.783047020 0.539772987 0.044449501
0.812740982 0.540398002 0.045517702
0.840681016 0.539131999 0.046005901
0.867200971 0.538033009 0.046173800
0.890744984 0.537316024 0.045517702
0.913527012 0.537025988 0.044953100
0.933776021 0.539466977 0.044220600
0.183429003 0.455069989 0.095124699
0.212787002 0.460121006 0.093308903
